
MODULE sjdm
PERS tooldata toolsj:=[TRUE,[[0,0,335],[0,0,1,0]],[1,[0,0,0.001],[1,0,0,0],0,0,0]];
	PERS wobjdata shangjiao:=[FALSE,TRUE,"",[[1595.46,-41.5565,460],[0.258819,0,0,-0.965926]],[[0,0,0],[1,0,0,0]]];
        PERS num FCstatus;
        !FCstatus :=1;

	PROC shanghai()
FCstatus :=1;
ConfJ\On;
ConfL\Off;
       MoveL [[  0.0000,  0.0000,200.0000],[1.0000,0.0000,0.0000,0.0000],[-1,-1,1,0],[9E9,9E9,9E9,9E9,9E9,9E9]],[ 50.0000,500,5000,1000],z10,toolsj\WObj:=shangjiao;
MoveL [[206.8076, 29.2515, 15.2482],[0.5640,0.0738,0.0219,0.8222],[-1,0,0,0],[9E9,9E9,9E9,9E9,9E9,9E9]],[ 20.0000,500,5000,1000],z10,toolsj\WObj:=shangjiao;
MoveL [[206.8076, 29.2515,-34.7518],[0.5640,0.0738,0.0219,0.8222],[-1,0,-2,0],[9E9,9E9,9E9,9E9,9E9,9E9]],[ 10.0000,500,5000,1000],z10,toolsj\WObj:=shangjiao;
FCstatus :=2;
MoveL [[206.8076, 29.2515,-44.7518],[0.5640,0.0738,0.0219,0.8222],[-1,0,-2,0],[9E9,9E9,9E9,9E9,9E9,9E9]],[  3.0000,500,5000,1000],z10,toolsj\WObj:=shangjiao;
MoveL [[207.6626, 29.6281,-45.1225],[0.5638,0.0733,0.0226,0.8223],[-1,0,-2,0],[9E9,9E9,9E9,9E9,9E9,9E9]],[  4.7710,500,5000,1000],z10,toolsj\WObj:=shangjiao;
MoveL [[208.5738, 30.0273,-45.3229],[0.5636,0.0728,0.0232,0.8225],[-1,0,-2,0],[9E9,9E9,9E9,9E9,9E9,9E9]],[  6.0212,500,5000,1000],z10,toolsj\WObj:=shangjiao;
MoveL [[209.4348, 30.3884,-45.6819],[0.5636,0.0728,0.0232,0.8225],[-1,0,-2,0],[9E9,9E9,9E9,9E9,9E9,9E9]],[  5.8533,500,5000,1000],z10,toolsj\WObj:=shangjiao;
MoveL [[210.2974, 30.7465,-46.0374],[0.5637,0.0729,0.0231,0.8224],[-1,0,-2,0],[9E9,9E9,9E9,9E9,9E9,9E9]],[  5.2563,500,5000,1000],z10,toolsj\WObj:=shangjiao;
MoveL [[211.1584, 31.1076,-46.3964],[0.5637,0.0729,0.0231,0.8224],[-1,0,-2,0],[9E9,9E9,9E9,9E9,9E9,9E9]],[  4.9627,500,5000,1000],z10,toolsj\WObj:=shangjiao;
MoveL [[212.0386, 31.4843,-46.6943],[0.5636,0.0726,0.0234,0.8225],[-1,0,-2,0],[9E9,9E9,9E9,9E9,9E9,9E9]],[  7.7845,500,5000,1000],z10,toolsj\WObj:=shangjiao;
MoveL [[212.9060, 31.8554,-47.0309],[0.5635,0.0724,0.0236,0.8226],[-1,0,-2,0],[9E9,9E9,9E9,9E9,9E9,9E9]],[ 11.6877,500,5000,1000],z10,toolsj\WObj:=shangjiao;
MoveL [[213.7629, 32.2128,-47.4032],[0.5635,0.0725,0.0236,0.8226],[-1,0,-2,0],[9E9,9E9,9E9,9E9,9E9,9E9]],[  7.2719,500,5000,1000],z10,toolsj\WObj:=shangjiao;
MoveL [[214.6492, 32.6008,-47.6791],[0.5634,0.0720,0.0242,0.8227],[-1,0,-2,0],[9E9,9E9,9E9,9E9,9E9,9E9]],[  5.5169,500,5000,1000],z10,toolsj\WObj:=shangjiao;
MoveL [[215.5102, 32.9619,-48.0382],[0.5634,0.0720,0.0242,0.8227],[-1,0,-2,0],[9E9,9E9,9E9,9E9,9E9,9E9]],[  5.8163,500,5000,1000],z10,toolsj\WObj:=shangjiao;
MoveL [[216.3727, 33.3202,-48.3939],[0.5634,0.0721,0.0241,0.8227],[-1,0,-2,0],[9E9,9E9,9E9,9E9,9E9,9E9]],[  6.6888,500,5000,1000],z10,toolsj\WObj:=shangjiao;
MoveL [[217.2345, 33.6798,-48.7512],[0.5634,0.0721,0.0240,0.8227],[-1,0,-2,0],[9E9,9E9,9E9,9E9,9E9,9E9]],[  7.1869,500,5000,1000],z10,toolsj\WObj:=shangjiao;
MoveL [[218.1395, 34.0950,-48.9623],[0.5630,0.0710,0.0253,0.8230],[-1,0,-2,0],[9E9,9E9,9E9,9E9,9E9,9E9]],[ 11.5388,500,5000,1000],z10,toolsj\WObj:=shangjiao;
MoveL [[219.0017, 34.4539,-49.3188],[0.5630,0.0711,0.0252,0.8230],[-1,0,-2,0],[9E9,9E9,9E9,9E9,9E9,9E9]],[  7.1821,500,5000,1000],z10,toolsj\WObj:=shangjiao;
MoveL [[219.8627, 34.8150,-49.6779],[0.5630,0.0711,0.0252,0.8230],[-1,0,-2,0],[9E9,9E9,9E9,9E9,9E9,9E9]],[  6.2939,500,5000,1000],z10,toolsj\WObj:=shangjiao;
MoveL [[220.7376, 35.1951,-49.9893],[0.5629,0.0707,0.0257,0.8231],[-1,0,-2,0],[9E9,9E9,9E9,9E9,9E9,9E9]],[  6.7223,500,5000,1000],z10,toolsj\WObj:=shangjiao;
MoveL [[221.6203, 35.5653,-50.2822],[0.5629,0.0707,0.0257,0.8231],[-1,0,-2,0],[9E9,9E9,9E9,9E9,9E9,9E9]],[  8.6068,500,5000,1000],z10,toolsj\WObj:=shangjiao;
MoveL [[222.4929, 35.9456,-50.6001],[0.5627,0.0702,0.0263,0.8232],[-1,0,-2,0],[9E9,9E9,9E9,9E9,9E9,9E9]],[ 10.0571,500,5000,1000],z10,toolsj\WObj:=shangjiao;
MoveL [[223.3546, 36.3049,-50.9577],[0.5628,0.0703,0.0262,0.8232],[-1,0,-2,0],[9E9,9E9,9E9,9E9,9E9,9E9]],[ 10.5104,500,5000,1000],z10,toolsj\WObj:=shangjiao;
MoveL [[224.2139, 36.6786,-51.3163],[0.5626,0.0698,0.0267,0.8233],[-1,0,-2,0],[9E9,9E9,9E9,9E9,9E9,9E9]],[  7.9752,500,5000,1000],z10,toolsj\WObj:=shangjiao;
MoveL [[225.0965, 37.0488,-51.6097],[0.5626,0.0698,0.0267,0.8233],[-1,0,-2,0],[9E9,9E9,9E9,9E9,9E9,9E9]],[  5.7496,500,5000,1000],z10,toolsj\WObj:=shangjiao;
MoveL [[225.0965, 37.0488,-41.6097],[0.5626,0.0698,0.0267,0.8233],[-1,0,-2,0],[9E9,9E9,9E9,9E9,9E9,9E9]],[  3.0000,500,5000,1000],z10,toolsj\WObj:=shangjiao;
MoveL [[226.5869, 54.3205,-43.3885],[0.5595,0.0604,0.0366,0.8258],[-1,0,-2,0],[9E9,9E9,9E9,9E9,9E9,9E9]],[ 10.0000,500,5000,1000],z10,toolsj\WObj:=shangjiao;
MoveL [[226.5869, 54.3205,-53.3885],[0.5595,0.0604,0.0366,0.8258],[-1,0,-2,0],[9E9,9E9,9E9,9E9,9E9,9E9]],[  3.0000,500,5000,1000],z10,toolsj\WObj:=shangjiao;
MoveL [[225.7225, 53.9468,-53.0465],[0.5596,0.0608,0.0362,0.8257],[-1,0,-2,0],[9E9,9E9,9E9,9E9,9E9,9E9]],[  4.7869,500,5000,1000],z10,toolsj\WObj:=shangjiao;
MoveL [[224.8342, 53.5603,-52.7788],[0.5598,0.0614,0.0357,0.8256],[-1,0,-2,0],[9E9,9E9,9E9,9E9,9E9,9E9]],[  6.2193,500,5000,1000],z10,toolsj\WObj:=shangjiao;
MoveL [[223.9730, 53.1991,-52.4205],[0.5598,0.0614,0.0357,0.8256],[-1,0,-2,0],[9E9,9E9,9E9,9E9,9E9,9E9]],[  5.1594,500,5000,1000],z10,toolsj\WObj:=shangjiao;
MoveL [[223.1077, 52.8436,-52.0702],[0.5597,0.0611,0.0360,0.8256],[-1,0,-2,0],[9E9,9E9,9E9,9E9,9E9,9E9]],[  5.3538,500,5000,1000],z10,toolsj\WObj:=shangjiao;
MoveL [[222.2453, 52.4819,-51.7155],[0.5597,0.0611,0.0360,0.8256],[-1,0,-2,0],[9E9,9E9,9E9,9E9,9E9,9E9]],[  4.8989,500,5000,1000],z10,toolsj\WObj:=shangjiao;
MoveL [[221.3513, 52.0975,-51.4622],[0.5598,0.0614,0.0356,0.8256],[-1,0,-2,0],[9E9,9E9,9E9,9E9,9E9,9E9]],[  4.9120,500,5000,1000],z10,toolsj\WObj:=shangjiao;
MoveL [[220.5163, 51.7664,-51.0128],[0.5596,0.0607,0.0363,0.8257],[-1,0,-2,0],[9E9,9E9,9E9,9E9,9E9,9E9]],[  4.6221,500,5000,1000],z10,toolsj\WObj:=shangjiao;
MoveL [[219.6289, 51.3660,-50.7509],[0.5599,0.0618,0.0353,0.8255],[-1,0,-2,0],[9E9,9E9,9E9,9E9,9E9,9E9]],[  5.8940,500,5000,1000],z10,toolsj\WObj:=shangjiao;
MoveL [[218.7665, 51.0043,-50.3962],[0.5599,0.0618,0.0353,0.8255],[-1,0,-2,0],[9E9,9E9,9E9,9E9,9E9,9E9]],[  5.9244,500,5000,1000],z10,toolsj\WObj:=shangjiao;
MoveL [[217.9051, 50.6301,-50.0461],[0.5601,0.0623,0.0348,0.8254],[-1,0,-2,0],[9E9,9E9,9E9,9E9,9E9,9E9]],[  4.9648,500,5000,1000],z10,toolsj\WObj:=shangjiao;
MoveL [[217.0185, 50.2616,-49.7629],[0.5601,0.0621,0.0349,0.8254],[-1,0,-2,0],[9E9,9E9,9E9,9E9,9E9,9E9]],[  4.8934,500,5000,1000],z10,toolsj\WObj:=shangjiao;
MoveL [[216.1761, 49.9114,-49.3455],[0.5600,0.0620,0.0350,0.8254],[-1,0,-2,0],[9E9,9E9,9E9,9E9,9E9,9E9]],[  4.7059,500,5000,1000],z10,toolsj\WObj:=shangjiao;
MoveL [[215.2891, 49.5241,-49.0743],[0.5602,0.0626,0.0345,0.8253],[-1,0,-2,0],[9E9,9E9,9E9,9E9,9E9,9E9]],[  4.9460,500,5000,1000],z10,toolsj\WObj:=shangjiao;
MoveL [[214.4253, 49.1651,-48.7220],[0.5602,0.0625,0.0346,0.8253],[-1,0,-2,0],[9E9,9E9,9E9,9E9,9E9,9E9]],[  5.8120,500,5000,1000],z10,toolsj\WObj:=shangjiao;
MoveL [[213.5606, 48.8079,-48.3713],[0.5601,0.0623,0.0348,0.8254],[-1,0,-2,0],[9E9,9E9,9E9,9E9,9E9,9E9]],[  6.0172,500,5000,1000],z10,toolsj\WObj:=shangjiao;
MoveL [[212.6981, 48.4462,-48.0166],[0.5601,0.0623,0.0348,0.8254],[-1,0,-2,0],[9E9,9E9,9E9,9E9,9E9,9E9]],[  5.4572,500,5000,1000],z10,toolsj\WObj:=shangjiao;
MoveL [[211.8189, 48.0639,-47.7207],[0.5603,0.0628,0.0343,0.8252],[-1,0,-2,0],[9E9,9E9,9E9,9E9,9E9,9E9]],[  4.6830,500,5000,1000],z10,toolsj\WObj:=shangjiao;
MoveL [[210.9413, 47.6823,-47.4198],[0.5604,0.0633,0.0338,0.8251],[-1,0,-2,0],[9E9,9E9,9E9,9E9,9E9,9E9]],[  4.4014,500,5000,1000],z10,toolsj\WObj:=shangjiao;
MoveL [[210.0792, 47.3207,-47.0641],[0.5604,0.0633,0.0338,0.8251],[-1,0,-2,0],[9E9,9E9,9E9,9E9,9E9,9E9]],[  4.1470,500,5000,1000],z10,toolsj\WObj:=shangjiao;
MoveL [[209.2134, 46.9634,-46.7165],[0.5604,0.0631,0.0340,0.8252],[-1,0,-2,0],[9E9,9E9,9E9,9E9,9E9,9E9]],[  5.9737,500,5000,1000],z10,toolsj\WObj:=shangjiao;
MoveL [[208.3522, 46.6023,-46.3581],[0.5604,0.0631,0.0340,0.8252],[-1,0,-2,0],[9E9,9E9,9E9,9E9,9E9,9E9]],[  6.0470,500,5000,1000],z10,toolsj\WObj:=shangjiao;
MoveL [[207.4543, 46.2123,-46.1186],[0.5605,0.0636,0.0335,0.8250],[-1,0,-2,0],[9E9,9E9,9E9,9E9,9E9,9E9]],[  6.4936,500,5000,1000],z10,toolsj\WObj:=shangjiao;
MoveL [[206.6186, 45.8651,-45.6810],[0.5605,0.0634,0.0336,0.8251],[-1,0,-2,0],[9E9,9E9,9E9,9E9,9E9,9E9]],[  5.6785,500,5000,1000],z10,toolsj\WObj:=shangjiao;
MoveL [[206.6186, 45.8651,-35.6810],[0.5605,0.0634,0.0336,0.8251],[-1,0,-2,0],[9E9,9E9,9E9,9E9,9E9,9E9]],[  3.0000,500,5000,1000],z10,toolsj\WObj:=shangjiao;
MoveL [[221.6441, 73.4536,-43.6323],[0.5560,0.0491,0.0467,0.8284],[-1,0,-2,0],[9E9,9E9,9E9,9E9,9E9,9E9]],[ 10.0000,500,5000,1000],z10,toolsj\WObj:=shangjiao;
MoveL [[221.6441, 73.4536,-53.6323],[0.5560,0.0491,0.0467,0.8284],[-1,0,-2,0],[9E9,9E9,9E9,9E9,9E9,9E9]],[  3.0000,500,5000,1000],z10,toolsj\WObj:=shangjiao;
MoveL [[220.7752, 73.0965,-53.2910],[0.5559,0.0488,0.0469,0.8285],[-1,0,-2,0],[9E9,9E9,9E9,9E9,9E9,9E9]],[  6.4081,500,5000,1000],z10,toolsj\WObj:=shangjiao;
MoveL [[219.9120, 72.7263,-52.9456],[0.5560,0.0491,0.0467,0.8284],[-1,0,-2,0],[9E9,9E9,9E9,9E9,9E9,9E9]],[  5.8894,500,5000,1000],z10,toolsj\WObj:=shangjiao;
MoveL [[219.0334, 72.3625,-52.6361],[0.5560,0.0489,0.0468,0.8284],[-1,0,-2,0],[9E9,9E9,9E9,9E9,9E9,9E9]],[  5.5493,500,5000,1000],z10,toolsj\WObj:=shangjiao;
MoveL [[218.1758, 72.0073,-52.2631],[0.5559,0.0487,0.0470,0.8285],[-1,0,-2,0],[9E9,9E9,9E9,9E9,9E9,9E9]],[  5.4817,500,5000,1000],z10,toolsj\WObj:=shangjiao;
MoveL [[217.3009, 71.6305,-51.9547],[0.5560,0.0491,0.0466,0.8284],[-1,0,-2,0],[9E9,9E9,9E9,9E9,9E9,9E9]],[  5.9308,500,5000,1000],z10,toolsj\WObj:=shangjiao;
MoveL [[216.4349, 71.2673,-51.6109],[0.5560,0.0491,0.0466,0.8284],[-1,0,-2,0],[9E9,9E9,9E9,9E9,9E9,9E9]],[  5.5747,500,5000,1000],z10,toolsj\WObj:=shangjiao;
MoveL [[215.5666, 70.9091,-51.2691],[0.5560,0.0489,0.0468,0.8284],[-1,0,-2,0],[9E9,9E9,9E9,9E9,9E9,9E9]],[  5.3954,500,5000,1000],z10,toolsj\WObj:=shangjiao;
MoveL [[214.6982, 70.5361,-50.9398],[0.5561,0.0493,0.0465,0.8284],[-1,0,-2,0],[9E9,9E9,9E9,9E9,9E9,9E9]],[  5.4308,500,5000,1000],z10,toolsj\WObj:=shangjiao;
MoveL [[213.8316, 70.1746,-50.5963],[0.5561,0.0492,0.0466,0.8284],[-1,0,-2,0],[9E9,9E9,9E9,9E9,9E9,9E9]],[  4.8834,500,5000,1000],z10,toolsj\WObj:=shangjiao;
MoveL [[212.9614, 69.7994,-50.2737],[0.5562,0.0496,0.0462,0.8283],[-1,0,-2,0],[9E9,9E9,9E9,9E9,9E9,9E9]],[  5.7634,500,5000,1000],z10,toolsj\WObj:=shangjiao;
MoveL [[212.0955, 69.4363,-49.9298],[0.5562,0.0496,0.0462,0.8283],[-1,0,-2,0],[9E9,9E9,9E9,9E9,9E9,9E9]],[  5.1463,500,5000,1000],z10,toolsj\WObj:=shangjiao;
MoveL [[211.2254, 69.0838,-49.5878],[0.5560,0.0491,0.0467,0.8284],[-1,0,-2,0],[9E9,9E9,9E9,9E9,9E9,9E9]],[  5.6568,500,5000,1000],z10,toolsj\WObj:=shangjiao;
MoveL [[210.3610, 68.7213,-49.2393],[0.5560,0.0491,0.0467,0.8284],[-1,0,-2,0],[9E9,9E9,9E9,9E9,9E9,9E9]],[  5.2977,500,5000,1000],z10,toolsj\WObj:=shangjiao;
MoveL [[209.4876, 68.3415,-48.9291],[0.5562,0.0497,0.0462,0.8283],[-1,0,-2,0],[9E9,9E9,9E9,9E9,9E9,9E9]],[  5.5082,500,5000,1000],z10,toolsj\WObj:=shangjiao;
MoveL [[208.6222, 67.9679,-48.5923],[0.5563,0.0501,0.0458,0.8282],[-1,0,-2,0],[9E9,9E9,9E9,9E9,9E9,9E9]],[  5.4319,500,5000,1000],z10,toolsj\WObj:=shangjiao;
MoveL [[207.7563, 67.6048,-48.2484],[0.5563,0.0501,0.0458,0.8282],[-1,0,-2,0],[9E9,9E9,9E9,9E9,9E9,9E9]],[  5.4063,500,5000,1000],z10,toolsj\WObj:=shangjiao;
MoveL [[206.8865, 67.2495,-47.9082],[0.5562,0.0497,0.0462,0.8283],[-1,0,-2,0],[9E9,9E9,9E9,9E9,9E9,9E9]],[  5.4735,500,5000,1000],z10,toolsj\WObj:=shangjiao;
MoveL [[206.0205, 66.8863,-47.5643],[0.5562,0.0497,0.0462,0.8283],[-1,0,-2,0],[9E9,9E9,9E9,9E9,9E9,9E9]],[  4.7833,500,5000,1000],z10,toolsj\WObj:=shangjiao;
MoveL [[205.1464, 66.5117,-47.2515],[0.5563,0.0501,0.0459,0.8282],[-1,0,-2,0],[9E9,9E9,9E9,9E9,9E9,9E9]],[  5.1255,500,5000,1000],z10,toolsj\WObj:=shangjiao;
MoveL [[204.2886, 66.1551,-46.8802],[0.5563,0.0499,0.0460,0.8282],[-1,0,-2,0],[9E9,9E9,9E9,9E9,9E9,9E9]],[  4.8670,500,5000,1000],z10,toolsj\WObj:=shangjiao;
MoveL [[203.4135, 65.7808,-46.5704],[0.5564,0.0502,0.0457,0.8282],[-1,0,-2,0],[9E9,9E9,9E9,9E9,9E9,9E9]],[  5.7034,500,5000,1000],z10,toolsj\WObj:=shangjiao;
MoveL [[202.5475, 65.4176,-46.2265],[0.5564,0.0502,0.0457,0.8282],[-1,0,-2,0],[9E9,9E9,9E9,9E9,9E9,9E9]],[  5.3979,500,5000,1000],z10,toolsj\WObj:=shangjiao;
MoveL [[201.6776, 65.0626,-45.8864],[0.5562,0.0498,0.0461,0.8282],[-1,0,-2,0],[9E9,9E9,9E9,9E9,9E9,9E9]],[  5.7974,500,5000,1000],z10,toolsj\WObj:=shangjiao;
MoveL [[200.8116, 64.6995,-45.5426],[0.5562,0.0498,0.0461,0.8282],[-1,0,-2,0],[9E9,9E9,9E9,9E9,9E9,9E9]],[  5.7489,500,5000,1000],z10,toolsj\WObj:=shangjiao;
MoveL [[199.9432, 64.3413,-45.2010],[0.5562,0.0496,0.0463,0.8283],[-1,0,-2,0],[9E9,9E9,9E9,9E9,9E9,9E9]],[  4.9164,500,5000,1000],z10,toolsj\WObj:=shangjiao;
MoveL [[199.0748, 63.9484,-44.8883],[0.5565,0.0508,0.0453,0.8280],[-1,0,-2,0],[9E9,9E9,9E9,9E9,9E9,9E9]],[  5.0715,500,5000,1000],z10,toolsj\WObj:=shangjiao;
MoveL [[198.2088, 63.5852,-44.5444],[0.5565,0.0508,0.0453,0.8280],[-1,0,-2,0],[9E9,9E9,9E9,9E9,9E9,9E9]],[  5.1948,500,5000,1000],z10,toolsj\WObj:=shangjiao;
MoveL [[197.3388, 63.2303,-44.2045],[0.5564,0.0504,0.0456,0.8281],[-1,0,-2,0],[9E9,9E9,9E9,9E9,9E9,9E9]],[  5.5148,500,5000,1000],z10,toolsj\WObj:=shangjiao;
MoveL [[196.4728, 62.8671,-43.8607],[0.5564,0.0504,0.0456,0.8281],[-1,0,-2,0],[9E9,9E9,9E9,9E9,9E9,9E9]],[  5.5327,500,5000,1000],z10,toolsj\WObj:=shangjiao;
MoveL [[195.6040, 62.4910,-43.5350],[0.5566,0.0509,0.0452,0.8280],[-1,0,-2,0],[9E9,9E9,9E9,9E9,9E9,9E9]],[  5.8551,500,5000,1000],z10,toolsj\WObj:=shangjiao;
MoveL [[194.7397, 62.1330,-43.1821],[0.5565,0.0507,0.0454,0.8281],[-1,0,-2,0],[9E9,9E9,9E9,9E9,9E9,9E9]],[  5.2208,500,5000,1000],z10,toolsj\WObj:=shangjiao;
MoveL [[193.8673, 61.7728,-42.8533],[0.5564,0.0504,0.0456,0.8281],[-1,0,-2,0],[9E9,9E9,9E9,9E9,9E9,9E9]],[  5.0333,500,5000,1000],z10,toolsj\WObj:=shangjiao;
MoveL [[193.0003, 61.3974,-42.5222],[0.5566,0.0509,0.0452,0.8280],[-1,0,-2,0],[9E9,9E9,9E9,9E9,9E9,9E9]],[  6.0427,500,5000,1000],z10,toolsj\WObj:=shangjiao;
MoveL [[192.1343, 61.0342,-42.1783],[0.5566,0.0509,0.0452,0.8280],[-1,0,-2,0],[9E9,9E9,9E9,9E9,9E9,9E9]],[  5.7565,500,5000,1000],z10,toolsj\WObj:=shangjiao;
MoveL [[191.2567, 60.6540,-41.8794],[0.5567,0.0515,0.0447,0.8279],[-1,0,-2,0],[9E9,9E9,9E9,9E9,9E9,9E9]],[  7.2425,500,5000,1000],z10,toolsj\WObj:=shangjiao;
MoveL [[190.4011, 60.3004,-41.4999],[0.5567,0.0512,0.0449,0.8279],[-1,0,-2,0],[9E9,9E9,9E9,9E9,9E9,9E9]],[  6.5166,500,5000,1000],z10,toolsj\WObj:=shangjiao;
MoveL [[189.5236, 59.9374,-41.1869],[0.5566,0.0510,0.0451,0.8280],[-1,0,-2,0],[9E9,9E9,9E9,9E9,9E9,9E9]],[  6.3515,500,5000,1000],z10,toolsj\WObj:=shangjiao;
MoveL [[188.6614, 59.5644,-40.8408],[0.5567,0.0515,0.0447,0.8279],[-1,0,-2,0],[9E9,9E9,9E9,9E9,9E9,9E9]],[  6.7095,500,5000,1000],z10,toolsj\WObj:=shangjiao;
MoveL [[187.7958, 59.2014,-40.4958],[0.5567,0.0515,0.0447,0.8279],[-1,0,-2,0],[9E9,9E9,9E9,9E9,9E9,9E9]],[  6.2250,500,5000,1000],z10,toolsj\WObj:=shangjiao;
MoveL [[186.9260, 58.8462,-40.1559],[0.5566,0.0511,0.0450,0.8280],[-1,0,-2,0],[9E9,9E9,9E9,9E9,9E9,9E9]],[  8.4073,500,5000,1000],z10,toolsj\WObj:=shangjiao;
MoveL [[186.0648, 58.4723,-39.8075],[0.5568,0.0516,0.0446,0.8278],[-1,0,-2,0],[9E9,9E9,9E9,9E9,9E9,9E9]],[  8.2646,500,5000,1000],z10,toolsj\WObj:=shangjiao;
MoveL [[185.1817, 58.0989,-39.5182],[0.5568,0.0518,0.0445,0.8278],[-1,0,-2,0],[9E9,9E9,9E9,9E9,9E9,9E9]],[  7.9714,500,5000,1000],z10,toolsj\WObj:=shangjiao;
MoveL [[184.3240, 57.7393,-39.1490],[0.5568,0.0518,0.0445,0.8278],[-1,0,-2,0],[9E9,9E9,9E9,9E9,9E9,9E9]],[  7.0172,500,5000,1000],z10,toolsj\WObj:=shangjiao;
MoveL [[183.4519, 57.3743,-38.8232],[0.5568,0.0517,0.0445,0.8278],[-1,0,-2,0],[9E9,9E9,9E9,9E9,9E9,9E9]],[  7.3372,500,5000,1000],z10,toolsj\WObj:=shangjiao;
MoveL [[182.5872, 57.0117,-38.4754],[0.5568,0.0517,0.0445,0.8278],[-1,0,-2,0],[9E9,9E9,9E9,9E9,9E9,9E9]],[  6.4326,500,5000,1000],z10,toolsj\WObj:=shangjiao;
MoveL [[181.7182, 56.6340,-38.1510],[0.5570,0.0523,0.0440,0.8277],[-1,0,-2,0],[9E9,9E9,9E9,9E9,9E9,9E9]],[  9.2777,500,5000,1000],z10,toolsj\WObj:=shangjiao;
MoveL [[180.8440, 56.2729,-37.8278],[0.5569,0.0521,0.0442,0.8278],[-1,0,-2,0],[9E9,9E9,9E9,9E9,9E9,9E9]],[  9.3559,500,5000,1000],z10,toolsj\WObj:=shangjiao;
MoveL [[179.9823, 55.9168,-37.4667],[0.5568,0.0518,0.0444,0.8278],[-1,0,-2,0],[9E9,9E9,9E9,9E9,9E9,9E9]],[  7.2393,500,5000,1000],z10,toolsj\WObj:=shangjiao;
MoveL [[179.1105, 55.5350,-37.1534],[0.5571,0.0525,0.0438,0.8277],[-1,0,-2,0],[9E9,9E9,9E9,9E9,9E9,9E9]],[  7.8034,500,5000,1000],z10,toolsj\WObj:=shangjiao;
MoveL [[178.2444, 55.1772,-36.8057],[0.5570,0.0523,0.0440,0.8277],[-1,0,-2,0],[9E9,9E9,9E9,9E9,9E9,9E9]],[  6.8295,500,5000,1000],z10,toolsj\WObj:=shangjiao;
MoveL [[177.3771, 54.8218,-36.4592],[0.5569,0.0519,0.0443,0.8278],[-1,0,-2,0],[9E9,9E9,9E9,9E9,9E9,9E9]],[  7.4955,500,5000,1000],z10,toolsj\WObj:=shangjiao;
MoveL [[176.5132, 54.4595,-36.1091],[0.5569,0.0519,0.0443,0.8278],[-1,0,-2,0],[9E9,9E9,9E9,9E9,9E9,9E9]],[  7.6769,500,5000,1000],z10,toolsj\WObj:=shangjiao;
MoveL [[175.6331, 54.0766,-35.8188],[0.5571,0.0525,0.0438,0.8277],[-1,0,-2,0],[9E9,9E9,9E9,9E9,9E9,9E9]],[  9.3738,500,5000,1000],z10,toolsj\WObj:=shangjiao;
MoveL [[174.7671, 53.6995,-35.4859],[0.5572,0.0531,0.0433,0.8275],[-1,0,-2,0],[9E9,9E9,9E9,9E9,9E9,9E9]],[  7.5601,500,5000,1000],z10,toolsj\WObj:=shangjiao;
MoveL [[173.9032, 53.3372,-35.1357],[0.5572,0.0531,0.0433,0.8275],[-1,0,-2,0],[9E9,9E9,9E9,9E9,9E9,9E9]],[  5.9608,500,5000,1000],z10,toolsj\WObj:=shangjiao;
MoveL [[173.0273, 52.9703,-34.8214],[0.5572,0.0531,0.0433,0.8275],[-1,0,-2,0],[9E9,9E9,9E9,9E9,9E9,9E9]],[  7.0823,500,5000,1000],z10,toolsj\WObj:=shangjiao;
MoveL [[172.1737, 52.6123,-34.4400],[0.5572,0.0531,0.0433,0.8275],[-1,0,-2,0],[9E9,9E9,9E9,9E9,9E9,9E9]],[  6.0974,500,5000,1000],z10,toolsj\WObj:=shangjiao;
MoveL [[171.2892, 52.2230,-34.1664],[0.5575,0.0538,0.0427,0.8274],[-1,0,-2,0],[9E9,9E9,9E9,9E9,9E9,9E9]],[  8.6404,500,5000,1000],z10,toolsj\WObj:=shangjiao;
MoveL [[170.4253, 51.8607,-33.8163],[0.5575,0.0538,0.0427,0.8274],[-1,0,-2,0],[9E9,9E9,9E9,9E9,9E9,9E9]],[  8.3227,500,5000,1000],z10,toolsj\WObj:=shangjiao;
MoveL [[169.5572, 51.5068,-33.4710],[0.5573,0.0534,0.0431,0.8275],[-1,0,-2,0],[9E9,9E9,9E9,9E9,9E9,9E9]],[  8.6248,500,5000,1000],z10,toolsj\WObj:=shangjiao;
MoveL [[168.6933, 51.1445,-33.1209],[0.5573,0.0534,0.0431,0.8275],[-1,0,-2,0],[9E9,9E9,9E9,9E9,9E9,9E9]],[  7.8719,500,5000,1000],z10,toolsj\WObj:=shangjiao;
MoveL [[167.8301, 50.7685,-32.7789],[0.5575,0.0540,0.0426,0.8273],[-1,0,-2,0],[9E9,9E9,9E9,9E9,9E9,9E9]],[  6.9461,500,5000,1000],z10,toolsj\WObj:=shangjiao;
MoveL [[166.9479, 50.4044,-32.4798],[0.5574,0.0538,0.0428,0.8274],[-1,0,-2,0],[9E9,9E9,9E9,9E9,9E9,9E9]],[  7.5949,500,5000,1000],z10,toolsj\WObj:=shangjiao;
MoveL [[166.0964, 50.0528,-32.0879],[0.5574,0.0535,0.0430,0.8274],[-1,0,-2,0],[9E9,9E9,9E9,9E9,9E9,9E9]],[  7.4127,500,5000,1000],z10,toolsj\WObj:=shangjiao;
MoveL [[165.2154, 49.6680,-31.8013],[0.5576,0.0542,0.0424,0.8273],[-1,0,-2,0],[9E9,9E9,9E9,9E9,9E9,9E9]],[  8.4603,500,5000,1000],z10,toolsj\WObj:=shangjiao;
MoveL [[164.3515, 49.3057,-31.4511],[0.5576,0.0542,0.0424,0.8273],[-1,0,-2,0],[9E9,9E9,9E9,9E9,9E9,9E9]],[  7.9201,500,5000,1000],z10,toolsj\WObj:=shangjiao;
MoveL [[163.4841, 48.9504,-31.1052],[0.5574,0.0538,0.0427,0.8274],[-1,0,-2,0],[9E9,9E9,9E9,9E9,9E9,9E9]],[  7.9980,500,5000,1000],z10,toolsj\WObj:=shangjiao;
MoveL [[162.6178, 48.5930,-30.7580],[0.5574,0.0536,0.0429,0.8274],[-1,0,-2,0],[9E9,9E9,9E9,9E9,9E9,9E9]],[  7.8249,500,5000,1000],z10,toolsj\WObj:=shangjiao;
MoveL [[161.7451, 48.2084,-30.4482],[0.5576,0.0543,0.0423,0.8272],[-1,0,-2,0],[9E9,9E9,9E9,9E9,9E9,9E9]],[  7.2445,500,5000,1000],z10,toolsj\WObj:=shangjiao;
MoveL [[160.8746, 47.8273,-30.1299],[0.5578,0.0550,0.0417,0.8271],[-1,0,-2,0],[9E9,9E9,9E9,9E9,9E9,9E9]],[  7.6472,500,5000,1000],z10,toolsj\WObj:=shangjiao;
MoveL [[160.0107, 47.4650,-29.7797],[0.5578,0.0550,0.0417,0.8271],[-1,0,-2,0],[9E9,9E9,9E9,9E9,9E9,9E9]],[  7.0759,500,5000,1000],z10,toolsj\WObj:=shangjiao;
MoveL [[159.1419, 47.1124,-29.4357],[0.5577,0.0545,0.0421,0.8272],[-1,0,-2,0],[9E9,9E9,9E9,9E9,9E9,9E9]],[  9.6904,500,5000,1000],z10,toolsj\WObj:=shangjiao;
MoveL [[158.2780, 46.7501,-29.0856],[0.5577,0.0545,0.0421,0.8272],[-1,0,-2,0],[9E9,9E9,9E9,9E9,9E9,9E9]],[  9.0947,500,5000,1000],z10,toolsj\WObj:=shangjiao;
MoveL [[157.3987, 46.3411,-28.8112],[0.5582,0.0561,0.0407,0.8268],[-1,0,-2,0],[9E9,9E9,9E9,9E9,9E9,9E9]],[  7.8012,500,5000,1000],z10,toolsj\WObj:=shangjiao;
MoveL [[156.5477, 46.0139,-28.4002],[0.5578,0.0549,0.0417,0.8271],[-1,0,-2,0],[9E9,9E9,9E9,9E9,9E9,9E9]],[  6.2915,500,5000,1000],z10,toolsj\WObj:=shangjiao;
MoveL [[155.6594, 45.6472,-28.1199],[0.5577,0.0547,0.0419,0.8272],[-1,0,-2,0],[9E9,9E9,9E9,9E9,9E9,9E9]],[  8.5878,500,5000,1000],z10,toolsj\WObj:=shangjiao;
MoveL [[154.8013, 45.2703,-27.7648],[0.5579,0.0554,0.0413,0.8270],[-1,0,-2,0],[9E9,9E9,9E9,9E9,9E9,9E9]],[ 10.4021,500,5000,1000],z10,toolsj\WObj:=shangjiao;
MoveL [[153.9378, 44.9082,-27.4133],[0.5579,0.0554,0.0413,0.8270],[-1,0,-2,0],[9E9,9E9,9E9,9E9,9E9,9E9]],[  9.5671,500,5000,1000],z10,toolsj\WObj:=shangjiao;
MoveL [[153.0694, 44.5549,-27.0689],[0.5578,0.0550,0.0417,0.8271],[-1,0,-2,0],[9E9,9E9,9E9,9E9,9E9,9E9]],[ 10.2621,500,5000,1000],z10,toolsj\WObj:=shangjiao;
MoveL [[152.2113, 44.1787,-26.7126],[0.5580,0.0556,0.0411,0.8270],[-1,0,-2,0],[9E9,9E9,9E9,9E9,9E9,9E9]],[  8.7800,500,5000,1000],z10,toolsj\WObj:=shangjiao;
MoveL [[151.3219, 43.7878,-26.4528],[0.5582,0.0563,0.0405,0.8268],[-1,0,-2,0],[9E9,9E9,9E9,9E9,9E9,9E9]],[  8.4463,500,5000,1000],z10,toolsj\WObj:=shangjiao;
MoveL [[150.4587, 43.4258,-26.1004],[0.5582,0.0563,0.0405,0.8268],[-1,0,-2,0],[9E9,9E9,9E9,9E9,9E9,9E9]],[  8.4801,500,5000,1000],z10,toolsj\WObj:=shangjiao;
MoveL [[149.5905, 43.0740,-25.7547],[0.5581,0.0558,0.0409,0.8269],[-1,0,-2,0],[9E9,9E9,9E9,9E9,9E9,9E9]],[  9.5113,500,5000,1000],z10,toolsj\WObj:=shangjiao;
MoveL [[148.7273, 42.7120,-25.4023],[0.5581,0.0558,0.0409,0.8269],[-1,0,-2,0],[9E9,9E9,9E9,9E9,9E9,9E9]],[ 10.0030,500,5000,1000],z10,toolsj\WObj:=shangjiao;
MoveL [[147.8580, 42.3288,-25.0815],[0.5583,0.0566,0.0402,0.8267],[-1,0,-2,0],[9E9,9E9,9E9,9E9,9E9,9E9]],[  8.5755,500,5000,1000],z10,toolsj\WObj:=shangjiao;
MoveL [[146.9793, 41.9427,-24.7884],[0.5585,0.0573,0.0396,0.8266],[-1,0,-2,0],[9E9,9E9,9E9,9E9,9E9,9E9]],[  8.7467,500,5000,1000],z10,toolsj\WObj:=shangjiao;
MoveL [[146.1162, 41.5807,-24.4359],[0.5585,0.0573,0.0396,0.8266],[-1,0,-2,0],[9E9,9E9,9E9,9E9,9E9,9E9]],[  6.7632,500,5000,1000],z10,toolsj\WObj:=shangjiao;
MoveL [[145.2484, 41.2279,-24.0899],[0.5584,0.0568,0.0400,0.8267],[-1,0,-2,0],[9E9,9E9,9E9,9E9,9E9,9E9]],[  8.1019,500,5000,1000],z10,toolsj\WObj:=shangjiao;
MoveL [[144.3852, 40.8659,-23.7375],[0.5584,0.0568,0.0400,0.8267],[-1,0,-2,0],[9E9,9E9,9E9,9E9,9E9,9E9]],[  8.8173,500,5000,1000],z10,toolsj\WObj:=shangjiao;
MoveL [[143.5167, 40.5145,-23.3923],[0.5582,0.0563,0.0405,0.8268],[-1,0,-2,0],[9E9,9E9,9E9,9E9,9E9,9E9]],[ 13.4740,500,5000,1000],z10,toolsj\WObj:=shangjiao;
MoveL [[142.6536, 40.1526,-23.0398],[0.5582,0.0563,0.0405,0.8268],[-1,0,-2,0],[9E9,9E9,9E9,9E9,9E9,9E9]],[ 10.8176,500,5000,1000],z10,toolsj\WObj:=shangjiao;
MoveL [[141.7763, 39.7502,-22.7538],[0.5586,0.0577,0.0392,0.8265],[-1,0,-2,0],[9E9,9E9,9E9,9E9,9E9,9E9]],[  9.7289,500,5000,1000],z10,toolsj\WObj:=shangjiao;
MoveL [[140.9073, 39.3801,-22.4231],[0.5587,0.0579,0.0390,0.8264],[-1,0,-2,0],[9E9,9E9,9E9,9E9,9E9,9E9]],[  8.7073,500,5000,1000],z10,toolsj\WObj:=shangjiao;
MoveL [[140.0441, 39.0181,-22.0706],[0.5587,0.0579,0.0390,0.8264],[-1,0,-2,0],[9E9,9E9,9E9,9E9,9E9,9E9]],[  8.8110,500,5000,1000],z10,toolsj\WObj:=shangjiao;
MoveL [[139.1756, 38.6668,-21.7259],[0.5586,0.0574,0.0395,0.8265],[-1,0,-2,0],[9E9,9E9,9E9,9E9,9E9,9E9]],[ 13.8708,500,5000,1000],z10,toolsj\WObj:=shangjiao;
MoveL [[138.3124, 38.3048,-21.3734],[0.5586,0.0574,0.0395,0.8265],[-1,0,-2,0],[9E9,9E9,9E9,9E9,9E9,9E9]],[ 10.5769,500,5000,1000],z10,toolsj\WObj:=shangjiao;
MoveL [[137.4437, 37.9256,-21.0477],[0.5587,0.0580,0.0389,0.8264],[-1,0,-2,0],[9E9,9E9,9E9,9E9,9E9,9E9]],[ 13.3608,500,5000,1000],z10,toolsj\WObj:=shangjiao;
MoveL [[136.5672, 37.5581,-20.7358],[0.5587,0.0580,0.0389,0.8264],[-1,0,-2,0],[9E9,9E9,9E9,9E9,9E9,9E9]],[ 10.4011,500,5000,1000],z10,toolsj\WObj:=shangjiao;
MoveL [[135.6986, 37.1790,-20.4096],[0.5589,0.0586,0.0384,0.8263],[-1,0,-2,0],[9E9,9E9,9E9,9E9,9E9,9E9]],[ 10.1508,500,5000,1000],z10,toolsj\WObj:=shangjiao;
MoveL [[134.8355, 36.8170,-20.0572],[0.5589,0.0586,0.0384,0.8263],[-1,0,-2,0],[9E9,9E9,9E9,9E9,9E9,9E9]],[ 12.9131,500,5000,1000],z10,toolsj\WObj:=shangjiao;
MoveL [[133.9667, 36.4661,-19.7130],[0.5588,0.0581,0.0389,0.8264],[-1,0,-2,0],[9E9,9E9,9E9,9E9,9E9,9E9]],[ 12.6157,500,5000,1000],z10,toolsj\WObj:=shangjiao;
MoveL [[133.1035, 36.1041,-19.3605],[0.5588,0.0581,0.0389,0.8264],[-1,0,-2,0],[9E9,9E9,9E9,9E9,9E9,9E9]],[ 11.1068,500,5000,1000],z10,toolsj\WObj:=shangjiao;
MoveL [[132.2446, 35.7277,-19.0057],[0.5590,0.0587,0.0383,0.8262],[-1,0,-2,0],[9E9,9E9,9E9,9E9,9E9,9E9]],[  9.3198,500,5000,1000],z10,toolsj\WObj:=shangjiao;
MoveL [[131.3681, 35.3601,-18.6938],[0.5590,0.0587,0.0383,0.8262],[-1,0,-2,0],[9E9,9E9,9E9,9E9,9E9,9E9]],[  8.7639,500,5000,1000],z10,toolsj\WObj:=shangjiao;
MoveL [[130.4916, 34.9925,-18.3818],[0.5590,0.0587,0.0383,0.8262],[-1,0,-2,0],[9E9,9E9,9E9,9E9,9E9,9E9]],[ 10.4290,500,5000,1000],z10,toolsj\WObj:=shangjiao;
MoveL [[129.6278, 34.6140,-18.0420],[0.5591,0.0593,0.0377,0.8261],[-1,0,-2,0],[9E9,9E9,9E9,9E9,9E9,9E9]],[ 18.8261,500,5000,1000],z10,toolsj\WObj:=shangjiao;
MoveL [[128.7647, 34.2521,-17.6895],[0.5591,0.0593,0.0377,0.8261],[-1,0,-2,0],[9E9,9E9,9E9,9E9,9E9,9E9]],[ 18.9371,500,5000,1000],z10,toolsj\WObj:=shangjiao;
MoveL [[127.8997, 33.8829,-17.3466],[0.5592,0.0596,0.0375,0.8260],[-1,0,-2,0],[9E9,9E9,9E9,9E9,9E9,9E9]],[ 17.4900,500,5000,1000],z10,toolsj\WObj:=shangjiao;
MoveL [[127.0269, 33.5169,-17.0233],[0.5592,0.0596,0.0375,0.8260],[-1,0,-2,0],[9E9,9E9,9E9,9E9,9E9,9E9]],[ 16.0486,500,5000,1000],z10,toolsj\WObj:=shangjiao;
MoveL [[127.0269, 33.5169, -7.0233],[0.5592,0.0596,0.0375,0.8260],[-1,0,-2,0],[9E9,9E9,9E9,9E9,9E9,9E9]],[  3.0000,500,5000,1000],z10,toolsj\WObj:=shangjiao;
MoveL [[108.7330, 45.4720, -2.2880],[0.5525,0.0370,0.0556,0.8308],[-1,0,-2,0],[9E9,9E9,9E9,9E9,9E9,9E9]],[ 10.0000,500,5000,1000],z10,toolsj\WObj:=shangjiao;
MoveL [[108.7330, 45.4720,-12.2880],[0.5525,0.0370,0.0556,0.8308],[-1,0,-2,0],[9E9,9E9,9E9,9E9,9E9,9E9]],[  3.0000,500,5000,1000],z10,toolsj\WObj:=shangjiao;
MoveL [[109.5987, 45.8462,-12.6205],[0.5524,0.0365,0.0559,0.8309],[-1,0,-2,0],[9E9,9E9,9E9,9E9,9E9,9E9]],[  4.8856,500,5000,1000],z10,toolsj\WObj:=shangjiao;
MoveL [[110.4831, 46.1740,-12.9549],[0.5529,0.0385,0.0546,0.8305],[-1,0,-2,0],[9E9,9E9,9E9,9E9,9E9,9E9]],[  5.5034,500,5000,1000],z10,toolsj\WObj:=shangjiao;
MoveL [[111.3428, 46.5580,-13.2926],[0.5526,0.0374,0.0553,0.8308],[-1,0,-2,0],[9E9,9E9,9E9,9E9,9E9,9E9]],[  5.2741,500,5000,1000],z10,toolsj\WObj:=shangjiao;
MoveL [[112.2005, 46.9363,-13.6416],[0.5524,0.0365,0.0559,0.8309],[-1,0,-2,0],[9E9,9E9,9E9,9E9,9E9,9E9]],[  4.7460,500,5000,1000],z10,toolsj\WObj:=shangjiao;
MoveL [[113.0706, 47.3012,-13.9729],[0.5524,0.0365,0.0559,0.8309],[-1,0,-2,0],[9E9,9E9,9E9,9E9,9E9,9E9]],[  4.4780,500,5000,1000],z10,toolsj\WObj:=shangjiao;
MoveL [[113.9356, 47.6742,-14.3084],[0.5522,0.0360,0.0562,0.8310],[-1,0,-2,0],[9E9,9E9,9E9,9E9,9E9,9E9]],[  4.6752,500,5000,1000],z10,toolsj\WObj:=shangjiao;
MoveL [[114.8008, 48.0371,-14.6547],[0.5522,0.0360,0.0562,0.8310],[-1,0,-2,0],[9E9,9E9,9E9,9E9,9E9,9E9]],[  4.9095,500,5000,1000],z10,toolsj\WObj:=shangjiao;
MoveL [[115.6802, 48.3870,-14.9782],[0.5525,0.0369,0.0556,0.8308],[-1,0,-2,0],[9E9,9E9,9E9,9E9,9E9,9E9]],[  4.6975,500,5000,1000],z10,toolsj\WObj:=shangjiao;
MoveL [[116.5385, 48.7647,-15.3264],[0.5523,0.0361,0.0562,0.8310],[-1,0,-2,0],[9E9,9E9,9E9,9E9,9E9,9E9]],[  4.6523,500,5000,1000],z10,toolsj\WObj:=shangjiao;
MoveL [[117.4086, 49.1296,-15.6577],[0.5523,0.0361,0.0562,0.8310],[-1,0,-2,0],[9E9,9E9,9E9,9E9,9E9,9E9]],[  4.6254,500,5000,1000],z10,toolsj\WObj:=shangjiao;
MoveL [[118.2876, 49.4733,-15.9892],[0.5526,0.0372,0.0554,0.8308],[-1,0,-2,0],[9E9,9E9,9E9,9E9,9E9,9E9]],[  4.7374,500,5000,1000],z10,toolsj\WObj:=shangjiao;
MoveL [[119.1577, 49.8382,-16.3205],[0.5526,0.0372,0.0554,0.8308],[-1,0,-2,0],[9E9,9E9,9E9,9E9,9E9,9E9]],[  4.9733,500,5000,1000],z10,toolsj\WObj:=shangjiao;
MoveL [[120.0150, 50.2143,-16.6725],[0.5524,0.0365,0.0559,0.8309],[-1,0,-2,0],[9E9,9E9,9E9,9E9,9E9,9E9]],[  4.9831,500,5000,1000],z10,toolsj\WObj:=shangjiao;
MoveL [[120.9063, 50.5399,-16.9916],[0.5530,0.0387,0.0544,0.8305],[-1,0,-2,0],[9E9,9E9,9E9,9E9,9E9,9E9]],[  4.9801,500,5000,1000],z10,toolsj\WObj:=shangjiao;
MoveL [[121.7625, 50.9233,-17.3389],[0.5527,0.0376,0.0551,0.8307],[-1,0,-2,0],[9E9,9E9,9E9,9E9,9E9,9E9]],[  4.9640,500,5000,1000],z10,toolsj\WObj:=shangjiao;
MoveL [[122.6255, 51.3018,-17.6742],[0.5525,0.0368,0.0557,0.8309],[-1,0,-2,0],[9E9,9E9,9E9,9E9,9E9,9E9]],[  4.8796,500,5000,1000],z10,toolsj\WObj:=shangjiao;
MoveL [[123.4957, 51.6667,-18.0055],[0.5525,0.0368,0.0557,0.8309],[-1,0,-2,0],[9E9,9E9,9E9,9E9,9E9,9E9]],[  4.8561,500,5000,1000],z10,toolsj\WObj:=shangjiao;
MoveL [[124.3740, 52.0121,-18.3365],[0.5528,0.0379,0.0550,0.8307],[-1,0,-2,0],[9E9,9E9,9E9,9E9,9E9,9E9]],[  4.9109,500,5000,1000],z10,toolsj\WObj:=shangjiao;
MoveL [[125.2441, 52.3770,-18.6679],[0.5528,0.0379,0.0550,0.8307],[-1,0,-2,0],[9E9,9E9,9E9,9E9,9E9,9E9]],[  4.7099,500,5000,1000],z10,toolsj\WObj:=shangjiao;
MoveL [[126.0937, 52.7647,-19.0278],[0.5524,0.0364,0.0559,0.8309],[-1,0,-2,0],[9E9,9E9,9E9,9E9,9E9,9E9]],[  4.5292,500,5000,1000],z10,toolsj\WObj:=shangjiao;
MoveL [[126.9638, 53.1296,-19.3591],[0.5524,0.0364,0.0559,0.8309],[-1,0,-2,0],[9E9,9E9,9E9,9E9,9E9,9E9]],[  4.5415,500,5000,1000],z10,toolsj\WObj:=shangjiao;
MoveL [[127.8418, 53.4757,-19.6904],[0.5526,0.0375,0.0552,0.8307],[-1,0,-2,0],[9E9,9E9,9E9,9E9,9E9,9E9]],[  4.6585,500,5000,1000],z10,toolsj\WObj:=shangjiao;
MoveL [[128.7119, 53.8406,-20.0217],[0.5526,0.0375,0.0552,0.8307],[-1,0,-2,0],[9E9,9E9,9E9,9E9,9E9,9E9]],[  4.6266,500,5000,1000],z10,toolsj\WObj:=shangjiao;
MoveL [[129.5746, 54.2173,-20.3593],[0.5525,0.0368,0.0557,0.8309],[-1,0,-2,0],[9E9,9E9,9E9,9E9,9E9,9E9]],[  4.5977,500,5000,1000],z10,toolsj\WObj:=shangjiao;
MoveL [[130.4303, 54.5964,-20.7125],[0.5522,0.0358,0.0563,0.8310],[-1,0,-2,0],[9E9,9E9,9E9,9E9,9E9,9E9]],[  4.8729,500,5000,1000],z10,toolsj\WObj:=shangjiao;
MoveL [[131.3188, 54.9275,-21.0327],[0.5527,0.0377,0.0550,0.8307],[-1,0,-2,0],[9E9,9E9,9E9,9E9,9E9,9E9]],[  4.7283,500,5000,1000],z10,toolsj\WObj:=shangjiao;
MoveL [[132.1800, 55.3035,-21.3754],[0.5525,0.0371,0.0555,0.8308],[-1,0,-2,0],[9E9,9E9,9E9,9E9,9E9,9E9]],[  4.7329,500,5000,1000],z10,toolsj\WObj:=shangjiao;
MoveL [[133.0501, 55.6684,-21.7067],[0.5525,0.0371,0.0555,0.8308],[-1,0,-2,0],[9E9,9E9,9E9,9E9,9E9,9E9]],[  4.6893,500,5000,1000],z10,toolsj\WObj:=shangjiao;
MoveL [[133.9101, 56.0433,-22.0532],[0.5523,0.0364,0.0559,0.8309],[-1,0,-2,0],[9E9,9E9,9E9,9E9,9E9,9E9]],[  4.6603,500,5000,1000],z10,toolsj\WObj:=shangjiao;
MoveL [[134.7845, 56.3999,-22.3823],[0.5525,0.0369,0.0556,0.8308],[-1,0,-2,0],[9E9,9E9,9E9,9E9,9E9,9E9]],[  4.8722,500,5000,1000],z10,toolsj\WObj:=shangjiao;
MoveL [[135.6569, 56.7552,-22.7183],[0.5526,0.0374,0.0553,0.8308],[-1,0,-2,0],[9E9,9E9,9E9,9E9,9E9,9E9]],[  4.8412,500,5000,1000],z10,toolsj\WObj:=shangjiao;
MoveL [[136.5190, 57.1294,-23.0604],[0.5525,0.0368,0.0557,0.8309],[-1,0,-2,0],[9E9,9E9,9E9,9E9,9E9,9E9]],[  4.8022,500,5000,1000],z10,toolsj\WObj:=shangjiao;
MoveL [[137.3891, 57.4943,-23.3917],[0.5525,0.0368,0.0557,0.8309],[-1,0,-2,0],[9E9,9E9,9E9,9E9,9E9,9E9]],[  4.7316,500,5000,1000],z10,toolsj\WObj:=shangjiao;
MoveL [[138.2658, 57.8437,-23.7229],[0.5527,0.0376,0.0551,0.8307],[-1,0,-2,0],[9E9,9E9,9E9,9E9,9E9,9E9]],[  4.7015,500,5000,1000],z10,toolsj\WObj:=shangjiao;
MoveL [[139.1359, 58.2086,-24.0542],[0.5527,0.0376,0.0551,0.8307],[-1,0,-2,0],[9E9,9E9,9E9,9E9,9E9,9E9]],[  4.6513,500,5000,1000],z10,toolsj\WObj:=shangjiao;
MoveL [[139.9926, 58.5814,-24.4116],[0.5525,0.0370,0.0556,0.8308],[-1,0,-2,0],[9E9,9E9,9E9,9E9,9E9,9E9]],[  4.6555,500,5000,1000],z10,toolsj\WObj:=shangjiao;
MoveL [[140.8564, 58.9591,-24.7453],[0.5523,0.0363,0.0560,0.8310],[-1,0,-2,0],[9E9,9E9,9E9,9E9,9E9,9E9]],[  4.9027,500,5000,1000],z10,toolsj\WObj:=shangjiao;
MoveL [[141.7343, 59.3057,-25.0764],[0.5526,0.0373,0.0554,0.8308],[-1,0,-2,0],[9E9,9E9,9E9,9E9,9E9,9E9]],[  4.9210,500,5000,1000],z10,toolsj\WObj:=shangjiao;
MoveL [[142.6042, 59.6709,-25.4080],[0.5526,0.0373,0.0554,0.8308],[-1,0,-2,0],[9E9,9E9,9E9,9E9,9E9,9E9]],[  4.8682,500,5000,1000],z10,toolsj\WObj:=shangjiao;
MoveL [[143.4694, 60.0467,-25.7400],[0.5524,0.0366,0.0558,0.8309],[-1,0,-2,0],[9E9,9E9,9E9,9E9,9E9,9E9]],[  4.7202,500,5000,1000],z10,toolsj\WObj:=shangjiao;
MoveL [[144.3352, 60.4007,-26.0941],[0.5525,0.0371,0.0555,0.8308],[-1,0,-2,0],[9E9,9E9,9E9,9E9,9E9,9E9]],[  4.5195,500,5000,1000],z10,toolsj\WObj:=shangjiao;
MoveL [[145.2146, 60.7600,-26.4077],[0.5527,0.0375,0.0552,0.8307],[-1,0,-2,0],[9E9,9E9,9E9,9E9,9E9,9E9]],[  4.2937,500,5000,1000],z10,toolsj\WObj:=shangjiao;
MoveL [[146.0710, 61.1370,-26.7617],[0.5524,0.0367,0.0558,0.8309],[-1,0,-2,0],[9E9,9E9,9E9,9E9,9E9,9E9]],[  4.4289,500,5000,1000],z10,toolsj\WObj:=shangjiao;
MoveL [[146.9444, 61.4941,-27.0930],[0.5526,0.0371,0.0555,0.8308],[-1,0,-2,0],[9E9,9E9,9E9,9E9,9E9,9E9]],[  4.3998,500,5000,1000],z10,toolsj\WObj:=shangjiao;
MoveL [[147.8194, 61.8473,-27.4241],[0.5527,0.0378,0.0550,0.8307],[-1,0,-2,0],[9E9,9E9,9E9,9E9,9E9,9E9]],[  4.5035,500,5000,1000],z10,toolsj\WObj:=shangjiao;
MoveL [[148.6896, 62.2122,-27.7554],[0.5527,0.0378,0.0550,0.8307],[-1,0,-2,0],[9E9,9E9,9E9,9E9,9E9,9E9]],[  4.5826,500,5000,1000],z10,toolsj\WObj:=shangjiao;
MoveL [[149.5514, 62.5860,-28.0982],[0.5526,0.0372,0.0554,0.8308],[-1,0,-2,0],[9E9,9E9,9E9,9E9,9E9,9E9]],[  4.5032,500,5000,1000],z10,toolsj\WObj:=shangjiao;
MoveL [[150.4115, 62.9592,-28.4466],[0.5524,0.0366,0.0558,0.8309],[-1,0,-2,0],[9E9,9E9,9E9,9E9,9E9,9E9]],[  4.6869,500,5000,1000],z10,toolsj\WObj:=shangjiao;
MoveL [[151.2817, 63.3241,-28.7779],[0.5524,0.0366,0.0558,0.8309],[-1,0,-2,0],[9E9,9E9,9E9,9E9,9E9,9E9]],[  4.7946,500,5000,1000],z10,toolsj\WObj:=shangjiao;
MoveL [[152.1584, 63.6732,-29.1092],[0.5527,0.0375,0.0552,0.8307],[-1,0,-2,0],[9E9,9E9,9E9,9E9,9E9,9E9]],[  4.9158,500,5000,1000],z10,toolsj\WObj:=shangjiao;
MoveL [[153.0285, 64.0381,-29.4405],[0.5527,0.0375,0.0552,0.8307],[-1,0,-2,0],[9E9,9E9,9E9,9E9,9E9,9E9]],[  4.8260,500,5000,1000],z10,toolsj\WObj:=shangjiao;
MoveL [[153.8873, 64.4112,-29.7922],[0.5525,0.0369,0.0556,0.8309],[-1,0,-2,0],[9E9,9E9,9E9,9E9,9E9,9E9]],[  4.5342,500,5000,1000],z10,toolsj\WObj:=shangjiao;
MoveL [[154.7630, 64.7700,-30.1156],[0.5526,0.0372,0.0554,0.8308],[-1,0,-2,0],[9E9,9E9,9E9,9E9,9E9,9E9]],[  4.5181,500,5000,1000],z10,toolsj\WObj:=shangjiao;
MoveL [[155.6327, 65.1261,-30.4576],[0.5527,0.0377,0.0551,0.8307],[-1,0,-2,0],[9E9,9E9,9E9,9E9,9E9,9E9]],[  4.5490,500,5000,1000],z10,toolsj\WObj:=shangjiao;
MoveL [[156.5007, 65.4909,-30.7945],[0.5527,0.0376,0.0551,0.8307],[-1,0,-2,0],[9E9,9E9,9E9,9E9,9E9,9E9]],[  4.9067,500,5000,1000],z10,toolsj\WObj:=shangjiao;
MoveL [[157.3693, 65.8598,-31.1255],[0.5526,0.0374,0.0553,0.8307],[-1,0,-2,0],[9E9,9E9,9E9,9E9,9E9,9E9]],[  5.0916,500,5000,1000],z10,toolsj\WObj:=shangjiao;
MoveL [[158.2269, 66.2293,-31.4838],[0.5525,0.0369,0.0556,0.8308],[-1,0,-2,0],[9E9,9E9,9E9,9E9,9E9,9E9]],[  4.8638,500,5000,1000],z10,toolsj\WObj:=shangjiao;
MoveL [[159.1054, 66.5977,-31.7898],[0.5525,0.0369,0.0556,0.8308],[-1,0,-2,0],[9E9,9E9,9E9,9E9,9E9,9E9]],[  4.5692,500,5000,1000],z10,toolsj\WObj:=shangjiao;
MoveL [[159.9657, 66.9615,-32.1479],[0.5525,0.0368,0.0557,0.8309],[-1,0,-2,0],[9E9,9E9,9E9,9E9,9E9,9E9]],[  4.4218,500,5000,1000],z10,toolsj\WObj:=shangjiao;
MoveL [[160.8358, 67.3264,-32.4792],[0.5525,0.0368,0.0557,0.8309],[-1,0,-2,0],[9E9,9E9,9E9,9E9,9E9,9E9]],[  4.3732,500,5000,1000],z10,toolsj\WObj:=shangjiao;
MoveL [[161.7101, 67.6815,-32.8104],[0.5526,0.0373,0.0553,0.8308],[-1,0,-2,0],[9E9,9E9,9E9,9E9,9E9,9E9]],[  4.6509,500,5000,1000],z10,toolsj\WObj:=shangjiao;
MoveL [[162.5831, 68.0397,-33.1416],[0.5527,0.0377,0.0551,0.8307],[-1,0,-2,0],[9E9,9E9,9E9,9E9,9E9,9E9]],[  4.6606,500,5000,1000],z10,toolsj\WObj:=shangjiao;
MoveL [[163.4461, 68.4160,-33.4789],[0.5525,0.0370,0.0555,0.8308],[-1,0,-2,0],[9E9,9E9,9E9,9E9,9E9,9E9]],[  4.4478,500,5000,1000],z10,toolsj\WObj:=shangjiao;
MoveL [[164.3048, 68.7872,-33.8328],[0.5524,0.0365,0.0559,0.8309],[-1,0,-2,0],[9E9,9E9,9E9,9E9,9E9,9E9]],[  4.6416,500,5000,1000],z10,toolsj\WObj:=shangjiao;
MoveL [[165.1749, 69.1521,-34.1641],[0.5524,0.0365,0.0559,0.8309],[-1,0,-2,0],[9E9,9E9,9E9,9E9,9E9,9E9]],[  4.5718,500,5000,1000],z10,toolsj\WObj:=shangjiao;
MoveL [[166.0507, 69.5036,-34.4954],[0.5526,0.0373,0.0554,0.8308],[-1,0,-2,0],[9E9,9E9,9E9,9E9,9E9,9E9]],[  4.5958,500,5000,1000],z10,toolsj\WObj:=shangjiao;
MoveL [[166.9208, 69.8685,-34.8267],[0.5526,0.0373,0.0554,0.8308],[-1,0,-2,0],[9E9,9E9,9E9,9E9,9E9,9E9]],[  4.6328,500,5000,1000],z10,toolsj\WObj:=shangjiao;
MoveL [[167.7833, 70.2404,-35.1700],[0.5525,0.0368,0.0557,0.8309],[-1,0,-2,0],[9E9,9E9,9E9,9E9,9E9,9E9]],[  4.6275,500,5000,1000],z10,toolsj\WObj:=shangjiao;
MoveL [[168.6557, 70.5992,-35.5019],[0.5526,0.0371,0.0555,0.8308],[-1,0,-2,0],[9E9,9E9,9E9,9E9,9E9,9E9]],[  4.8213,500,5000,1000],z10,toolsj\WObj:=shangjiao;
MoveL [[169.5274, 70.9570,-35.8370],[0.5527,0.0375,0.0552,0.8307],[-1,0,-2,0],[9E9,9E9,9E9,9E9,9E9,9E9]],[  4.6878,500,5000,1000],z10,toolsj\WObj:=shangjiao;
MoveL [[170.3898, 71.3293,-36.1804],[0.5525,0.0370,0.0556,0.8308],[-1,0,-2,0],[9E9,9E9,9E9,9E9,9E9,9E9]],[  4.5787,500,5000,1000],z10,toolsj\WObj:=shangjiao;
MoveL [[171.2599, 71.6942,-36.5117],[0.5525,0.0370,0.0556,0.8308],[-1,0,-2,0],[9E9,9E9,9E9,9E9,9E9,9E9]],[  4.4512,500,5000,1000],z10,toolsj\WObj:=shangjiao;
MoveL [[172.1221, 72.0642,-36.8578],[0.5524,0.0366,0.0558,0.8309],[-1,0,-2,0],[9E9,9E9,9E9,9E9,9E9,9E9]],[  4.6177,500,5000,1000],z10,toolsj\WObj:=shangjiao;
MoveL [[173.0074, 72.4068,-37.1740],[0.5528,0.0379,0.0549,0.8306],[-1,0,-2,0],[9E9,9E9,9E9,9E9,9E9,9E9]],[  4.8389,500,5000,1000],z10,toolsj\WObj:=shangjiao;
MoveL [[173.8635, 72.7815,-37.5311],[0.5526,0.0372,0.0554,0.8308],[-1,0,-2,0],[9E9,9E9,9E9,9E9,9E9,9E9]],[  4.9027,500,5000,1000],z10,toolsj\WObj:=shangjiao;
MoveL [[174.7290, 73.1547,-37.8653],[0.5524,0.0367,0.0557,0.8309],[-1,0,-2,0],[9E9,9E9,9E9,9E9,9E9,9E9]],[  4.8721,500,5000,1000],z10,toolsj\WObj:=shangjiao;
MoveL [[175.5991, 73.5196,-38.1966],[0.5524,0.0367,0.0557,0.8309],[-1,0,-2,0],[9E9,9E9,9E9,9E9,9E9,9E9]],[  4.5619,500,5000,1000],z10,toolsj\WObj:=shangjiao;
MoveL [[176.4744, 73.8722,-38.5279],[0.5526,0.0374,0.0553,0.8308],[-1,0,-2,0],[9E9,9E9,9E9,9E9,9E9,9E9]],[  4.6449,500,5000,1000],z10,toolsj\WObj:=shangjiao;
MoveL [[177.3406, 74.2460,-38.8596],[0.5525,0.0369,0.0556,0.8308],[-1,0,-2,0],[9E9,9E9,9E9,9E9,9E9,9E9]],[  4.5204,500,5000,1000],z10,toolsj\WObj:=shangjiao;
MoveL [[178.1982, 74.6150,-39.2189],[0.5524,0.0365,0.0559,0.8309],[-1,0,-2,0],[9E9,9E9,9E9,9E9,9E9,9E9]],[  4.5836,500,5000,1000],z10,toolsj\WObj:=shangjiao;
MoveL [[179.0683, 74.9799,-39.5502],[0.5524,0.0365,0.0559,0.8309],[-1,0,-2,0],[9E9,9E9,9E9,9E9,9E9,9E9]],[  4.3337,500,5000,1000],z10,toolsj\WObj:=shangjiao;
MoveL [[179.9435, 75.3327,-39.8816],[0.5526,0.0371,0.0555,0.8308],[-1,0,-2,0],[9E9,9E9,9E9,9E9,9E9,9E9]],[  4.2954,500,5000,1000],z10,toolsj\WObj:=shangjiao;
MoveL [[180.8136, 75.6976,-40.2129],[0.5526,0.0371,0.0555,0.8308],[-1,0,-2,0],[9E9,9E9,9E9,9E9,9E9,9E9]],[  4.3868,500,5000,1000],z10,toolsj\WObj:=shangjiao;
MoveL [[181.6772, 76.0694,-40.5535],[0.5524,0.0367,0.0558,0.8309],[-1,0,-2,0],[9E9,9E9,9E9,9E9,9E9,9E9]],[  4.5492,500,5000,1000],z10,toolsj\WObj:=shangjiao;
MoveL [[182.5366, 76.4424,-40.9038],[0.5523,0.0361,0.0562,0.8310],[-1,0,-2,0],[9E9,9E9,9E9,9E9,9E9,9E9]],[  4.6778,500,5000,1000],z10,toolsj\WObj:=shangjiao;
MoveL [[183.4224, 76.7871,-41.2164],[0.5526,0.0373,0.0553,0.8308],[-1,0,-2,0],[9E9,9E9,9E9,9E9,9E9,9E9]],[  4.5480,500,5000,1000],z10,toolsj\WObj:=shangjiao;
MoveL [[184.2828, 77.1578,-41.5666],[0.5525,0.0369,0.0556,0.8308],[-1,0,-2,0],[9E9,9E9,9E9,9E9,9E9,9E9]],[  4.8822,500,5000,1000],z10,toolsj\WObj:=shangjiao;
MoveL [[185.1530, 77.5227,-41.8979],[0.5525,0.0369,0.0556,0.8308],[-1,0,-2,0],[9E9,9E9,9E9,9E9,9E9,9E9]],[  4.7753,500,5000,1000],z10,toolsj\WObj:=shangjiao;
MoveL [[186.0279, 77.8761,-42.2291],[0.5527,0.0375,0.0552,0.8307],[-1,0,-2,0],[9E9,9E9,9E9,9E9,9E9,9E9]],[  4.6028,500,5000,1000],z10,toolsj\WObj:=shangjiao;
MoveL [[186.8981, 78.2410,-42.5604],[0.5527,0.0375,0.0552,0.8307],[-1,0,-2,0],[9E9,9E9,9E9,9E9,9E9,9E9]],[  4.5294,500,5000,1000],z10,toolsj\WObj:=shangjiao;
MoveL [[187.7583, 78.6111,-42.9117],[0.5525,0.0371,0.0555,0.8308],[-1,0,-2,0],[9E9,9E9,9E9,9E9,9E9,9E9]],[  4.5708,500,5000,1000],z10,toolsj\WObj:=shangjiao;
MoveL [[188.6373, 78.9685,-43.2280],[0.5527,0.0376,0.0551,0.8307],[-1,0,-2,0],[9E9,9E9,9E9,9E9,9E9,9E9]],[  4.9961,500,5000,1000],z10,toolsj\WObj:=shangjiao;
MoveL [[189.5010, 79.3307,-43.5788],[0.5527,0.0376,0.0551,0.8307],[-1,0,-2,0],[9E9,9E9,9E9,9E9,9E9,9E9]],[  5.0121,500,5000,1000],z10,toolsj\WObj:=shangjiao;
MoveL [[190.3673, 79.7013,-43.9141],[0.5526,0.0373,0.0554,0.8308],[-1,0,-2,0],[9E9,9E9,9E9,9E9,9E9,9E9]],[  4.8583,500,5000,1000],z10,toolsj\WObj:=shangjiao;
MoveL [[191.2374, 80.0662,-44.2454],[0.5526,0.0373,0.0554,0.8308],[-1,0,-2,0],[9E9,9E9,9E9,9E9,9E9,9E9]],[  4.6042,500,5000,1000],z10,toolsj\WObj:=shangjiao;
MoveL [[192.0974, 80.4295,-44.6044],[0.5526,0.0371,0.0555,0.8308],[-1,0,-2,0],[9E9,9E9,9E9,9E9,9E9,9E9]],[  4.5156,500,5000,1000],z10,toolsj\WObj:=shangjiao;
MoveL [[192.9759, 80.7979,-44.9104],[0.5526,0.0371,0.0555,0.8308],[-1,0,-2,0],[9E9,9E9,9E9,9E9,9E9,9E9]],[  4.5162,500,5000,1000],z10,toolsj\WObj:=shangjiao;
MoveL [[193.8365, 81.1613,-45.2678],[0.5525,0.0370,0.0555,0.8308],[-1,0,-2,0],[9E9,9E9,9E9,9E9,9E9,9E9]],[  4.7442,500,5000,1000],z10,toolsj\WObj:=shangjiao;
MoveL [[194.7067, 81.5262,-45.5991],[0.5525,0.0370,0.0555,0.8308],[-1,0,-2,0],[9E9,9E9,9E9,9E9,9E9,9E9]],[  4.7245,500,5000,1000],z10,toolsj\WObj:=shangjiao;
MoveL [[195.5724, 81.8980,-45.9341],[0.5524,0.0366,0.0558,0.8309],[-1,0,-2,0],[9E9,9E9,9E9,9E9,9E9,9E9]],[  4.5941,500,5000,1000],z10,toolsj\WObj:=shangjiao;
MoveL [[196.4390, 82.2552,-46.2827],[0.5525,0.0369,0.0556,0.8308],[-1,0,-2,0],[9E9,9E9,9E9,9E9,9E9,9E9]],[  4.4565,500,5000,1000],z10,toolsj\WObj:=shangjiao;
MoveL [[197.3167, 82.6168,-46.5983],[0.5526,0.0372,0.0554,0.8308],[-1,0,-2,0],[9E9,9E9,9E9,9E9,9E9,9E9]],[  4.2140,500,5000,1000],z10,toolsj\WObj:=shangjiao;
MoveL [[198.1750, 82.9885,-46.9528],[0.5524,0.0366,0.0558,0.8309],[-1,0,-2,0],[9E9,9E9,9E9,9E9,9E9,9E9]],[  4.5415,500,5000,1000],z10,toolsj\WObj:=shangjiao;
MoveL [[199.0474, 83.3481,-47.2841],[0.5525,0.0369,0.0556,0.8308],[-1,0,-2,0],[9E9,9E9,9E9,9E9,9E9,9E9]],[  4.4982,500,5000,1000],z10,toolsj\WObj:=shangjiao;
MoveL [[199.9207, 83.7052,-47.6153],[0.5526,0.0374,0.0553,0.8308],[-1,0,-2,0],[9E9,9E9,9E9,9E9,9E9,9E9]],[  4.6099,500,5000,1000],z10,toolsj\WObj:=shangjiao;
MoveL [[200.7909, 84.0701,-47.9466],[0.5526,0.0374,0.0553,0.8308],[-1,0,-2,0],[9E9,9E9,9E9,9E9,9E9,9E9]],[  4.6392,500,5000,1000],z10,toolsj\WObj:=shangjiao;
MoveL [[201.6532, 84.4403,-48.2923],[0.5525,0.0370,0.0556,0.8308],[-1,0,-2,0],[9E9,9E9,9E9,9E9,9E9,9E9]],[  4.4538,500,5000,1000],z10,toolsj\WObj:=shangjiao;
MoveL [[202.5157, 84.8105,-48.6377],[0.5524,0.0366,0.0558,0.8309],[-1,0,-2,0],[9E9,9E9,9E9,9E9,9E9,9E9]],[  4.6526,500,5000,1000],z10,toolsj\WObj:=shangjiao;
MoveL [[203.3858, 85.1754,-48.9690],[0.5524,0.0366,0.0558,0.8309],[-1,0,-2,0],[9E9,9E9,9E9,9E9,9E9,9E9]],[  4.6161,500,5000,1000],z10,toolsj\WObj:=shangjiao;
MoveL [[204.2606, 85.5291,-49.3003],[0.5526,0.0372,0.0554,0.8308],[-1,0,-2,0],[9E9,9E9,9E9,9E9,9E9,9E9]],[  4.7187,500,5000,1000],z10,toolsj\WObj:=shangjiao;
MoveL [[205.1308, 85.8940,-49.6316],[0.5526,0.0372,0.0554,0.8308],[-1,0,-2,0],[9E9,9E9,9E9,9E9,9E9,9E9]],[  4.5533,500,5000,1000],z10,toolsj\WObj:=shangjiao;
MoveL [[205.9898, 86.2636,-49.9863],[0.5525,0.0368,0.0557,0.8309],[-1,0,-2,0],[9E9,9E9,9E9,9E9,9E9,9E9]],[  4.4245,500,5000,1000],z10,toolsj\WObj:=shangjiao;
MoveL [[206.8676, 86.6258,-50.3008],[0.5525,0.0370,0.0555,0.8308],[-1,0,-2,0],[9E9,9E9,9E9,9E9,9E9,9E9]],[  4.5104,500,5000,1000],z10,toolsj\WObj:=shangjiao;
MoveL [[207.7338, 86.9830,-50.6505],[0.5526,0.0373,0.0553,0.8308],[-1,0,-2,0],[9E9,9E9,9E9,9E9,9E9,9E9]],[  4.6849,500,5000,1000],z10,toolsj\WObj:=shangjiao;
MoveL [[208.5995, 87.3553,-50.9853],[0.5525,0.0369,0.0556,0.8308],[-1,0,-2,0],[9E9,9E9,9E9,9E9,9E9,9E9]],[  4.9094,500,5000,1000],z10,toolsj\WObj:=shangjiao;
MoveL [[209.4744, 87.7102,-51.3151],[0.5526,0.0374,0.0553,0.8307],[-1,0,-2,0],[9E9,9E9,9E9,9E9,9E9,9E9]],[  4.9003,500,5000,1000],z10,toolsj\WObj:=shangjiao;
MoveL [[210.3443, 88.0744,-51.6478],[0.5527,0.0375,0.0552,0.8307],[-1,0,-2,0],[9E9,9E9,9E9,9E9,9E9,9E9]],[  4.7941,500,5000,1000],z10,toolsj\WObj:=shangjiao;
MoveL [[211.2144, 88.4393,-51.9791],[0.5527,0.0375,0.0552,0.8307],[-1,0,-2,0],[9E9,9E9,9E9,9E9,9E9,9E9]],[  4.5055,500,5000,1000],z10,toolsj\WObj:=shangjiao;
MoveL [[212.0694, 88.8140,-52.3390],[0.5524,0.0367,0.0557,0.8309],[-1,0,-2,0],[9E9,9E9,9E9,9E9,9E9,9E9]],[  4.3886,500,5000,1000],z10,toolsj\WObj:=shangjiao;
MoveL [[212.9395, 89.1789,-52.6703],[0.5524,0.0367,0.0557,0.8309],[-1,0,-2,0],[9E9,9E9,9E9,9E9,9E9,9E9]],[  4.2283,500,5000,1000],z10,toolsj\WObj:=shangjiao;
MoveL [[213.8127, 89.5365,-53.0016],[0.5526,0.0371,0.0555,0.8308],[-1,0,-2,0],[9E9,9E9,9E9,9E9,9E9,9E9]],[  4.4651,500,5000,1000],z10,toolsj\WObj:=shangjiao;
MoveL [[214.6848, 89.8965,-53.3328],[0.5526,0.0374,0.0553,0.8308],[-1,0,-2,0],[9E9,9E9,9E9,9E9,9E9,9E9]],[  4.9330,500,5000,1000],z10,toolsj\WObj:=shangjiao;
MoveL [[215.5482, 90.2693,-53.6729],[0.5525,0.0369,0.0556,0.8308],[-1,0,-2,0],[9E9,9E9,9E9,9E9,9E9,9E9]],[  5.8752,500,5000,1000],z10,toolsj\WObj:=shangjiao;
MoveL [[216.4175, 90.6282,-54.0128],[0.5526,0.0371,0.0554,0.8308],[-1,0,-2,0],[9E9,9E9,9E9,9E9,9E9,9E9]],[  7.8664,500,5000,1000],z10,toolsj\WObj:=shangjiao;
MoveL [[216.4175, 90.6282,-44.0128],[0.5526,0.0371,0.0554,0.8308],[-1,0,-2,0],[9E9,9E9,9E9,9E9,9E9,9E9]],[  3.0000,500,5000,1000],z10,toolsj\WObj:=shangjiao;
MoveL [[208.7320,106.7911,-43.9212],[0.5491,0.0246,0.0630,0.8330],[-1,0,-2,0],[9E9,9E9,9E9,9E9,9E9,9E9]],[ 10.0000,500,5000,1000],z10,toolsj\WObj:=shangjiao;
MoveL [[208.7320,106.7911,-53.9212],[0.5491,0.0246,0.0630,0.8330],[-1,0,-2,0],[9E9,9E9,9E9,9E9,9E9,9E9]],[  3.0000,500,5000,1000],z10,toolsj\WObj:=shangjiao;
MoveL [[207.8526,106.4292,-53.6093],[0.5490,0.0242,0.0632,0.8331],[-1,0,-2,0],[9E9,9E9,9E9,9E9,9E9,9E9]],[  7.2168,500,5000,1000],z10,toolsj\WObj:=shangjiao;
MoveL [[206.9978,106.0594,-53.2462],[0.5491,0.0248,0.0629,0.8330],[-1,0,-2,0],[9E9,9E9,9E9,9E9,9E9,9E9]],[  7.3465,500,5000,1000],z10,toolsj\WObj:=shangjiao;
MoveL [[206.1255,105.7006,-52.9125],[0.5490,0.0245,0.0631,0.8331],[-1,0,-2,0],[9E9,9E9,9E9,9E9,9E9,9E9]],[  6.4163,500,5000,1000],z10,toolsj\WObj:=shangjiao;
MoveL [[205.2498,105.3457,-52.5817],[0.5489,0.0239,0.0634,0.8332],[-1,0,-2,0],[9E9,9E9,9E9,9E9,9E9,9E9]],[  5.4576,500,5000,1000],z10,toolsj\WObj:=shangjiao;
MoveL [[204.3759,104.9792,-52.2618],[0.5489,0.0239,0.0634,0.8332],[-1,0,-2,0],[9E9,9E9,9E9,9E9,9E9,9E9]],[  5.7221,500,5000,1000],z10,toolsj\WObj:=shangjiao;
MoveL [[203.5154,104.6120,-51.9097],[0.5489,0.0242,0.0633,0.8331],[-1,0,-2,0],[9E9,9E9,9E9,9E9,9E9,9E9]],[  5.3800,500,5000,1000],z10,toolsj\WObj:=shangjiao;
MoveL [[202.6544,104.2440,-51.5598],[0.5490,0.0245,0.0631,0.8331],[-1,0,-2,0],[9E9,9E9,9E9,9E9,9E9,9E9]],[  5.3937,500,5000,1000],z10,toolsj\WObj:=shangjiao;
MoveL [[201.7839,103.8790,-51.2297],[0.5490,0.0245,0.0631,0.8331],[-1,0,-2,0],[9E9,9E9,9E9,9E9,9E9,9E9]],[  5.5835,500,5000,1000],z10,toolsj\WObj:=shangjiao;
MoveL [[200.9062,103.5260,-50.9015],[0.5488,0.0238,0.0635,0.8332],[-1,0,-2,0],[9E9,9E9,9E9,9E9,9E9,9E9]],[  4.9991,500,5000,1000],z10,toolsj\WObj:=shangjiao;
MoveL [[200.0322,103.1595,-50.5819],[0.5488,0.0238,0.0635,0.8332],[-1,0,-2,0],[9E9,9E9,9E9,9E9,9E9,9E9]],[  5.3462,500,5000,1000],z10,toolsj\WObj:=shangjiao;
MoveL [[199.1787,102.7951,-50.2085],[0.5489,0.0241,0.0633,0.8331],[-1,0,-2,0],[9E9,9E9,9E9,9E9,9E9,9E9]],[  5.2201,500,5000,1000],z10,toolsj\WObj:=shangjiao;
MoveL [[198.3119,102.4252,-49.8757],[0.5490,0.0244,0.0631,0.8331],[-1,0,-2,0],[9E9,9E9,9E9,9E9,9E9,9E9]],[  5.0219,500,5000,1000],z10,toolsj\WObj:=shangjiao;
MoveL [[197.4409,102.0599,-49.5469],[0.5490,0.0244,0.0631,0.8331],[-1,0,-2,0],[9E9,9E9,9E9,9E9,9E9,9E9]],[  5.2636,500,5000,1000],z10,toolsj\WObj:=shangjiao;
MoveL [[196.5633,101.7038,-49.2228],[0.5488,0.0238,0.0635,0.8332],[-1,0,-2,0],[9E9,9E9,9E9,9E9,9E9,9E9]],[  5.2017,500,5000,1000],z10,toolsj\WObj:=shangjiao;
MoveL [[195.6907,101.3342,-48.9038],[0.5489,0.0240,0.0634,0.8331],[-1,0,-2,0],[9E9,9E9,9E9,9E9,9E9,9E9]],[  5.5707,500,5000,1000],z10,toolsj\WObj:=shangjiao;
MoveL [[194.8326,100.9821,-48.5256],[0.5488,0.0236,0.0636,0.8332],[-1,0,-2,0],[9E9,9E9,9E9,9E9,9E9,9E9]],[  5.4090,500,5000,1000],z10,toolsj\WObj:=shangjiao;
MoveL [[193.9396,100.6152,-48.2536],[0.5487,0.0232,0.0638,0.8333],[-1,0,-2,0],[9E9,9E9,9E9,9E9,9E9,9E9]],[  6.0459,500,5000,1000],z10,toolsj\WObj:=shangjiao;
MoveL [[193.0925,100.2534,-47.8613],[0.5488,0.0236,0.0636,0.8332],[-1,0,-2,0],[9E9,9E9,9E9,9E9,9E9,9E9]],[  5.4427,500,5000,1000],z10,toolsj\WObj:=shangjiao;
MoveL [[192.2185, 99.8869,-47.5417],[0.5488,0.0236,0.0636,0.8332],[-1,0,-2,0],[9E9,9E9,9E9,9E9,9E9,9E9]],[  5.2946,500,5000,1000],z10,toolsj\WObj:=shangjiao;
MoveL [[191.3518, 99.5235,-47.1999],[0.5488,0.0235,0.0636,0.8332],[-1,0,-2,0],[9E9,9E9,9E9,9E9,9E9,9E9]],[  5.4386,500,5000,1000],z10,toolsj\WObj:=shangjiao;
MoveL [[190.4649, 99.1693,-46.8958],[0.5485,0.0227,0.0641,0.8334],[-1,0,-2,0],[9E9,9E9,9E9,9E9,9E9,9E9]],[  5.3922,500,5000,1000],z10,toolsj\WObj:=shangjiao;
MoveL [[189.6041, 98.7994,-46.5483],[0.5486,0.0231,0.0638,0.8333],[-1,0,-2,0],[9E9,9E9,9E9,9E9,9E9,9E9]],[  5.2807,500,5000,1000],z10,toolsj\WObj:=shangjiao;
MoveL [[188.7486, 98.4339,-46.1814],[0.5487,0.0234,0.0637,0.8332],[-1,0,-2,0],[9E9,9E9,9E9,9E9,9E9,9E9]],[  5.8757,500,5000,1000],z10,toolsj\WObj:=shangjiao;
MoveL [[187.8746, 98.0674,-45.8618],[0.5487,0.0234,0.0637,0.8332],[-1,0,-2,0],[9E9,9E9,9E9,9E9,9E9,9E9]],[  5.8530,500,5000,1000],z10,toolsj\WObj:=shangjiao;
MoveL [[186.9956, 97.7146,-45.5362],[0.5485,0.0227,0.0641,0.8334],[-1,0,-2,0],[9E9,9E9,9E9,9E9,9E9,9E9]],[  5.3054,500,5000,1000],z10,toolsj\WObj:=shangjiao;
MoveL [[186.1217, 97.3481,-45.2166],[0.5485,0.0227,0.0641,0.8334],[-1,0,-2,0],[9E9,9E9,9E9,9E9,9E9,9E9]],[  5.2750,500,5000,1000],z10,toolsj\WObj:=shangjiao;
MoveL [[185.2684, 96.9836,-44.8428],[0.5486,0.0230,0.0639,0.8333],[-1,0,-2,0],[9E9,9E9,9E9,9E9,9E9,9E9]],[  4.9859,500,5000,1000],z10,toolsj\WObj:=shangjiao;
MoveL [[184.3818, 96.6201,-44.5503],[0.5485,0.0226,0.0641,0.8334],[-1,0,-2,0],[9E9,9E9,9E9,9E9,9E9,9E9]],[  5.3102,500,5000,1000],z10,toolsj\WObj:=shangjiao;
MoveL [[183.5170, 96.2656,-44.1919],[0.5484,0.0222,0.0643,0.8334],[-1,0,-2,0],[9E9,9E9,9E9,9E9,9E9,9E9]],[  5.5051,500,5000,1000],z10,toolsj\WObj:=shangjiao;
MoveL [[182.6515, 95.8959,-43.8559],[0.5485,0.0225,0.0641,0.8334],[-1,0,-2,0],[9E9,9E9,9E9,9E9,9E9,9E9]],[  5.4117,500,5000,1000],z10,toolsj\WObj:=shangjiao;
MoveL [[181.7775, 95.5294,-43.5363],[0.5485,0.0225,0.0641,0.8334],[-1,0,-2,0],[9E9,9E9,9E9,9E9,9E9,9E9]],[  5.8718,500,5000,1000],z10,toolsj\WObj:=shangjiao;
MoveL [[180.9279, 95.1668,-43.1511],[0.5486,0.0228,0.0640,0.8333],[-1,0,-2,0],[9E9,9E9,9E9,9E9,9E9,9E9]],[  5.2027,500,5000,1000],z10,toolsj\WObj:=shangjiao;
MoveL [[180.0225, 94.8158,-42.8881],[0.5482,0.0214,0.0647,0.8336],[-1,0,-2,0],[9E9,9E9,9E9,9E9,9E9,9E9]],[  4.8057,500,5000,1000],z10,toolsj\WObj:=shangjiao;
MoveL [[179.1814, 94.4436,-42.4953],[0.5484,0.0224,0.0642,0.8334],[-1,0,-2,0],[9E9,9E9,9E9,9E9,9E9,9E9]],[  5.0247,500,5000,1000],z10,toolsj\WObj:=shangjiao;
MoveL [[178.3074, 94.0771,-42.1756],[0.5484,0.0224,0.0642,0.8334],[-1,0,-2,0],[9E9,9E9,9E9,9E9,9E9,9E9]],[  6.7755,500,5000,1000],z10,toolsj\WObj:=shangjiao;
MoveL [[177.4280, 93.7257,-41.8490],[0.5482,0.0215,0.0647,0.8336],[-1,0,-2,0],[9E9,9E9,9E9,9E9,9E9,9E9]],[  7.6809,500,5000,1000],z10,toolsj\WObj:=shangjiao;
MoveL [[176.5540, 93.3591,-41.5294],[0.5482,0.0215,0.0647,0.8336],[-1,0,-2,0],[9E9,9E9,9E9,9E9,9E9,9E9]],[  8.8989,500,5000,1000],z10,toolsj\WObj:=shangjiao;
MoveL [[175.6943, 92.9895,-41.1786],[0.5483,0.0220,0.0644,0.8335],[-1,0,-2,0],[9E9,9E9,9E9,9E9,9E9,9E9]],[  7.5173,500,5000,1000],z10,toolsj\WObj:=shangjiao;
MoveL [[174.8372, 92.6249,-40.8149],[0.5484,0.0222,0.0643,0.8334],[-1,0,-2,0],[9E9,9E9,9E9,9E9,9E9,9E9]],[  7.0303,500,5000,1000],z10,toolsj\WObj:=shangjiao;
MoveL [[173.9632, 92.2584,-40.4953],[0.5484,0.0222,0.0643,0.8334],[-1,0,-2,0],[9E9,9E9,9E9,9E9,9E9,9E9]],[  6.4510,500,5000,1000],z10,toolsj\WObj:=shangjiao;
MoveL [[173.0836, 91.9075,-40.1683],[0.5482,0.0214,0.0648,0.8336],[-1,0,-2,0],[9E9,9E9,9E9,9E9,9E9,9E9]],[  8.8908,500,5000,1000],z10,toolsj\WObj:=shangjiao;
MoveL [[172.2097, 91.5409,-39.8487],[0.5482,0.0214,0.0648,0.8336],[-1,0,-2,0],[9E9,9E9,9E9,9E9,9E9,9E9]],[  9.7416,500,5000,1000],z10,toolsj\WObj:=shangjiao;
MoveL [[171.3519, 91.1739,-39.4900],[0.5483,0.0217,0.0646,0.8335],[-1,0,-2,0],[9E9,9E9,9E9,9E9,9E9,9E9]],[  7.6983,500,5000,1000],z10,toolsj\WObj:=shangjiao;
MoveL [[170.4946, 90.8021,-39.1365],[0.5484,0.0223,0.0643,0.8334],[-1,0,-2,0],[9E9,9E9,9E9,9E9,9E9,9E9]],[  8.2091,500,5000,1000],z10,toolsj\WObj:=shangjiao;
MoveL [[169.5992, 90.4575,-38.8396],[0.5480,0.0208,0.0650,0.8337],[-1,0,-2,0],[9E9,9E9,9E9,9E9,9E9,9E9]],[  7.7664,500,5000,1000],z10,toolsj\WObj:=shangjiao;
MoveL [[168.7393, 90.0894,-38.4876],[0.5481,0.0212,0.0648,0.8336],[-1,0,-2,0],[9E9,9E9,9E9,9E9,9E9,9E9]],[  6.7498,500,5000,1000],z10,toolsj\WObj:=shangjiao;
MoveL [[167.8653, 89.7229,-38.1680],[0.5481,0.0212,0.0648,0.8336],[-1,0,-2,0],[9E9,9E9,9E9,9E9,9E9,9E9]],[  9.5490,500,5000,1000],z10,toolsj\WObj:=shangjiao;
MoveL [[166.9854, 89.3729,-37.8401],[0.5479,0.0202,0.0653,0.8338],[-1,0,-2,0],[9E9,9E9,9E9,9E9,9E9,9E9]],[  8.4625,500,5000,1000],z10,toolsj\WObj:=shangjiao;
MoveL [[166.1114, 89.0064,-37.5205],[0.5479,0.0202,0.0653,0.8338],[-1,0,-2,0],[9E9,9E9,9E9,9E9,9E9,9E9]],[  8.7354,500,5000,1000],z10,toolsj\WObj:=shangjiao;
MoveL [[165.2637, 88.6434,-37.1314],[0.5480,0.0206,0.0651,0.8337],[-1,0,-2,0],[9E9,9E9,9E9,9E9,9E9,9E9]],[  7.3606,500,5000,1000],z10,toolsj\WObj:=shangjiao;
MoveL [[164.3944, 88.2728,-36.8061],[0.5480,0.0209,0.0650,0.8337],[-1,0,-2,0],[9E9,9E9,9E9,9E9,9E9,9E9]],[  6.7380,500,5000,1000],z10,toolsj\WObj:=shangjiao;
MoveL [[163.5204, 87.9063,-36.4865],[0.5480,0.0209,0.0650,0.8337],[-1,0,-2,0],[9E9,9E9,9E9,9E9,9E9,9E9]],[  6.4171,500,5000,1000],z10,toolsj\WObj:=shangjiao;
MoveL [[162.6408, 87.5557,-36.1588],[0.5478,0.0200,0.0654,0.8338],[-1,0,-2,0],[9E9,9E9,9E9,9E9,9E9,9E9]],[  8.1099,500,5000,1000],z10,toolsj\WObj:=shangjiao;
MoveL [[161.7699, 87.1828,-35.8403],[0.5479,0.0204,0.0652,0.8337],[-1,0,-2,0],[9E9,9E9,9E9,9E9,9E9,9E9]],[ 10.7578,500,5000,1000],z10,toolsj\WObj:=shangjiao;
MoveL [[160.9145, 86.8342,-35.4500],[0.5478,0.0199,0.0655,0.8338],[-1,0,-2,0],[9E9,9E9,9E9,9E9,9E9,9E9]],[  9.3107,500,5000,1000],z10,toolsj\WObj:=shangjiao;
MoveL [[160.0196, 86.4673,-35.1825],[0.5476,0.0195,0.0657,0.8339],[-1,0,-2,0],[9E9,9E9,9E9,9E9,9E9,9E9]],[  8.2836,500,5000,1000],z10,toolsj\WObj:=shangjiao;
MoveL [[159.1700, 86.1052,-34.7970],[0.5477,0.0198,0.0656,0.8339],[-1,0,-2,0],[9E9,9E9,9E9,9E9,9E9,9E9]],[  7.7709,500,5000,1000],z10,toolsj\WObj:=shangjiao;
MoveL [[158.2961, 85.7387,-34.4774],[0.5477,0.0198,0.0656,0.8339],[-1,0,-2,0],[9E9,9E9,9E9,9E9,9E9,9E9]],[  7.5434,500,5000,1000],z10,toolsj\WObj:=shangjiao;
MoveL [[157.4336, 85.3691,-34.1337],[0.5478,0.0201,0.0654,0.8338],[-1,0,-2,0],[9E9,9E9,9E9,9E9,9E9,9E9]],[  9.1993,500,5000,1000],z10,toolsj\WObj:=shangjiao;
MoveL [[156.5633, 85.0147,-33.7879],[0.5477,0.0196,0.0656,0.8339],[-1,0,-2,0],[9E9,9E9,9E9,9E9,9E9,9E9]],[ 11.2484,500,5000,1000],z10,toolsj\WObj:=shangjiao;
MoveL [[155.6809, 84.6551,-33.4795],[0.5476,0.0191,0.0659,0.8340],[-1,0,-2,0],[9E9,9E9,9E9,9E9,9E9,9E9]],[  9.1810,500,5000,1000],z10,toolsj\WObj:=shangjiao;
MoveL [[154.8268, 84.2840,-33.1178],[0.5477,0.0197,0.0656,0.8339],[-1,0,-2,0],[9E9,9E9,9E9,9E9,9E9,9E9]],[  8.8064,500,5000,1000],z10,toolsj\WObj:=shangjiao;
MoveL [[153.9495, 83.9267,-32.7933],[0.5476,0.0192,0.0658,0.8339],[-1,0,-2,0],[9E9,9E9,9E9,9E9,9E9,9E9]],[  7.8747,500,5000,1000],z10,toolsj\WObj:=shangjiao;
MoveL [[153.0706, 83.5743,-32.4658],[0.5474,0.0184,0.0662,0.8341],[-1,0,-2,0],[9E9,9E9,9E9,9E9,9E9,9E9]],[  6.7609,500,5000,1000],z10,toolsj\WObj:=shangjiao;
MoveL [[152.1967, 83.2078,-32.1462],[0.5474,0.0184,0.0662,0.8341],[-1,0,-2,0],[9E9,9E9,9E9,9E9,9E9,9E9]],[  9.1776,500,5000,1000],z10,toolsj\WObj:=shangjiao;
MoveL [[151.3443, 82.8423,-31.7722],[0.5475,0.0188,0.0660,0.8340],[-1,0,-2,0],[9E9,9E9,9E9,9E9,9E9,9E9]],[  8.3409,500,5000,1000],z10,toolsj\WObj:=shangjiao;
MoveL [[150.4803, 82.4721,-31.4336],[0.5476,0.0192,0.0658,0.8339],[-1,0,-2,0],[9E9,9E9,9E9,9E9,9E9,9E9]],[  9.0159,500,5000,1000],z10,toolsj\WObj:=shangjiao;
MoveL [[149.6063, 82.1056,-31.1140],[0.5476,0.0192,0.0658,0.8339],[-1,0,-2,0],[9E9,9E9,9E9,9E9,9E9,9E9]],[ 10.1075,500,5000,1000],z10,toolsj\WObj:=shangjiao;
MoveL [[148.7241, 81.7604,-30.7844],[0.5472,0.0180,0.0664,0.8341],[-1,0,-2,0],[9E9,9E9,9E9,9E9,9E9,9E9]],[  7.4794,500,5000,1000],z10,toolsj\WObj:=shangjiao;
MoveL [[147.8493, 81.3935,-30.4673],[0.5472,0.0180,0.0664,0.8341],[-1,0,-2,0],[9E9,9E9,9E9,9E9,9E9,9E9]],[  6.9197,500,5000,1000],z10,toolsj\WObj:=shangjiao;
MoveL [[147.0025, 81.0396,-30.0631],[0.5472,0.0179,0.0665,0.8341],[-1,0,-2,0],[9E9,9E9,9E9,9E9,9E9,9E9]],[  8.3387,500,5000,1000],z10,toolsj\WObj:=shangjiao;
MoveL [[146.0989, 80.6607,-29.8332],[0.5472,0.0179,0.0665,0.8341],[-1,0,-2,0],[9E9,9E9,9E9,9E9,9E9,9E9]],[  8.7649,500,5000,1000],z10,toolsj\WObj:=shangjiao;
MoveL [[145.2544, 80.3088,-29.4214],[0.5472,0.0178,0.0665,0.8342],[-1,0,-2,0],[9E9,9E9,9E9,9E9,9E9,9E9]],[  9.4825,500,5000,1000],z10,toolsj\WObj:=shangjiao;
MoveL [[144.3787, 79.9416,-29.1070],[0.5472,0.0178,0.0665,0.8342],[-1,0,-2,0],[9E9,9E9,9E9,9E9,9E9,9E9]],[  9.2524,500,5000,1000],z10,toolsj\WObj:=shangjiao;
MoveL [[143.4953, 79.5964,-28.7796],[0.5469,0.0166,0.0671,0.8344],[-1,0,-2,0],[9E9,9E9,9E9,9E9,9E9,9E9]],[  9.8808,500,5000,1000],z10,toolsj\WObj:=shangjiao;
MoveL [[142.6193, 79.2290,-28.4662],[0.5469,0.0166,0.0671,0.8344],[-1,0,-2,0],[9E9,9E9,9E9,9E9,9E9,9E9]],[  9.0345,500,5000,1000],z10,toolsj\WObj:=shangjiao;
MoveL [[141.7539, 78.8578,-28.1325],[0.5470,0.0170,0.0669,0.8343],[-1,0,-2,0],[9E9,9E9,9E9,9E9,9E9,9E9]],[ 10.4941,500,5000,1000],z10,toolsj\WObj:=shangjiao;
MoveL [[140.9069, 78.4944,-27.7428],[0.5471,0.0174,0.0667,0.8342],[-1,0,-2,0],[9E9,9E9,9E9,9E9,9E9,9E9]],[ 10.4059,500,5000,1000],z10,toolsj\WObj:=shangjiao;
MoveL [[140.0309, 78.1270,-27.4294],[0.5471,0.0174,0.0667,0.8342],[-1,0,-2,0],[9E9,9E9,9E9,9E9,9E9,9E9]],[ 10.6417,500,5000,1000],z10,toolsj\WObj:=shangjiao;
MoveL [[139.1473, 77.7816,-27.1027],[0.5467,0.0162,0.0673,0.8344],[-1,0,-2,0],[9E9,9E9,9E9,9E9,9E9,9E9]],[ 12.0090,500,5000,1000],z10,toolsj\WObj:=shangjiao;
MoveL [[138.2713, 77.4142,-26.7893],[0.5467,0.0162,0.0673,0.8344],[-1,0,-2,0],[9E9,9E9,9E9,9E9,9E9,9E9]],[  9.0887,500,5000,1000],z10,toolsj\WObj:=shangjiao;
MoveL [[137.4168, 77.0473,-26.4229],[0.5469,0.0166,0.0671,0.8344],[-1,0,-2,0],[9E9,9E9,9E9,9E9,9E9,9E9]],[  8.2346,500,5000,1000],z10,toolsj\WObj:=shangjiao;
MoveL [[136.5590, 76.6792,-26.0663],[0.5470,0.0170,0.0669,0.8343],[-1,0,-2,0],[9E9,9E9,9E9,9E9,9E9,9E9]],[ 11.2926,500,5000,1000],z10,toolsj\WObj:=shangjiao;
MoveL [[135.6830, 76.3118,-25.7529],[0.5470,0.0170,0.0669,0.8343],[-1,0,-2,0],[9E9,9E9,9E9,9E9,9E9,9E9]],[ 15.2375,500,5000,1000],z10,toolsj\WObj:=shangjiao;
MoveL [[134.7991, 75.9673,-25.4253],[0.5466,0.0157,0.0675,0.8345],[-1,0,-2,0],[9E9,9E9,9E9,9E9,9E9,9E9]],[ 10.4757,500,5000,1000],z10,toolsj\WObj:=shangjiao;
MoveL [[133.9231, 75.5999,-25.1119],[0.5466,0.0157,0.0675,0.8345],[-1,0,-2,0],[9E9,9E9,9E9,9E9,9E9,9E9]],[  9.1601,500,5000,1000],z10,toolsj\WObj:=shangjiao;
MoveL [[133.0829, 75.2273,-24.7193],[0.5469,0.0167,0.0671,0.8343],[-1,0,-2,0],[9E9,9E9,9E9,9E9,9E9,9E9]],[  7.6781,500,5000,1000],z10,toolsj\WObj:=shangjiao;
MoveL [[132.1763, 74.8723,-24.4615],[0.5466,0.0155,0.0676,0.8345],[-1,0,-2,0],[9E9,9E9,9E9,9E9,9E9,9E9]],[  8.6471,500,5000,1000],z10,toolsj\WObj:=shangjiao;
MoveL [[131.3217, 74.5274,-24.0634],[0.5464,0.0148,0.0679,0.8346],[-1,0,-2,0],[9E9,9E9,9E9,9E9,9E9,9E9]],[ 10.6794,500,5000,1000],z10,toolsj\WObj:=shangjiao;
MoveL [[130.4507, 74.1537,-23.7474],[0.5465,0.0152,0.0677,0.8346],[-1,0,-2,0],[9E9,9E9,9E9,9E9,9E9,9E9]],[  8.5590,500,5000,1000],z10,toolsj\WObj:=shangjiao;
MoveL [[129.5747, 73.7864,-23.4341],[0.5465,0.0152,0.0677,0.8346],[-1,0,-2,0],[9E9,9E9,9E9,9E9,9E9,9E9]],[ 11.1134,500,5000,1000],z10,toolsj\WObj:=shangjiao;
MoveL [[128.7204, 73.4249,-23.0592],[0.5465,0.0154,0.0677,0.8346],[-1,0,-2,0],[9E9,9E9,9E9,9E9,9E9,9E9]],[ 11.5886,500,5000,1000],z10,toolsj\WObj:=shangjiao;
MoveL [[127.8195, 73.0687,-22.7894],[0.5462,0.0143,0.0682,0.8347],[-1,0,-2,0],[9E9,9E9,9E9,9E9,9E9,9E9]],[  9.4156,500,5000,1000],z10,toolsj\WObj:=shangjiao;
MoveL [[126.9781, 72.7082,-22.3824],[0.5463,0.0147,0.0680,0.8347],[-1,0,-2,0],[9E9,9E9,9E9,9E9,9E9,9E9]],[  7.7550,500,5000,1000],z10,toolsj\WObj:=shangjiao;
MoveL [[126.1020, 72.3409,-22.0690],[0.5463,0.0147,0.0680,0.8347],[-1,0,-2,0],[9E9,9E9,9E9,9E9,9E9,9E9]],[ 10.1243,500,5000,1000],z10,toolsj\WObj:=shangjiao;
MoveL [[125.2277, 71.9797,-21.7425],[0.5463,0.0144,0.0681,0.8347],[-1,0,-2,0],[9E9,9E9,9E9,9E9,9E9,9E9]],[ 13.9165,500,5000,1000],z10,toolsj\WObj:=shangjiao;
MoveL [[124.3640, 71.6175,-21.3914],[0.5463,0.0144,0.0681,0.8347],[-1,0,-2,0],[9E9,9E9,9E9,9E9,9E9,9E9]],[ 13.6220,500,5000,1000],z10,toolsj\WObj:=shangjiao;
MoveL [[123.5004, 71.2554,-21.0403],[0.5463,0.0144,0.0681,0.8347],[-1,0,-2,0],[9E9,9E9,9E9,9E9,9E9,9E9]],[ 13.1971,500,5000,1000],z10,toolsj\WObj:=shangjiao;
MoveL [[122.6286, 70.8979,-20.7021],[0.5462,0.0140,0.0683,0.8348],[-1,0,-2,0],[9E9,9E9,9E9,9E9,9E9,9E9]],[ 12.4353,500,5000,1000],z10,toolsj\WObj:=shangjiao;
MoveL [[121.7526, 70.5306,-20.3887],[0.5462,0.0140,0.0683,0.8348],[-1,0,-2,0],[9E9,9E9,9E9,9E9,9E9,9E9]],[  8.4996,500,5000,1000],z10,toolsj\WObj:=shangjiao;
MoveL [[120.8744, 70.1826,-20.0513],[0.5459,0.0130,0.0687,0.8349],[-1,0,-2,0],[9E9,9E9,9E9,9E9,9E9,9E9]],[ 14.3525,500,5000,1000],z10,toolsj\WObj:=shangjiao;
MoveL [[120.0057, 69.8183,-19.7157],[0.5459,0.0130,0.0687,0.8349],[-1,0,-2,0],[9E9,9E9,9E9,9E9,9E9,9E9]],[ 12.3594,500,5000,1000],z10,toolsj\WObj:=shangjiao;
MoveL [[119.1370, 69.4540,-19.3800],[0.5459,0.0130,0.0687,0.8349],[-1,0,-2,0],[9E9,9E9,9E9,9E9,9E9,9E9]],[ 10.4851,500,5000,1000],z10,toolsj\WObj:=shangjiao;
MoveL [[118.2683, 69.0897,-19.0444],[0.5459,0.0130,0.0687,0.8349],[-1,0,-2,0],[9E9,9E9,9E9,9E9,9E9,9E9]],[ 13.4074,500,5000,1000],z10,toolsj\WObj:=shangjiao;
MoveL [[117.3997, 68.7254,-18.7087],[0.5459,0.0130,0.0687,0.8349],[-1,0,-2,0],[9E9,9E9,9E9,9E9,9E9,9E9]],[ 10.7777,500,5000,1000],z10,toolsj\WObj:=shangjiao;
MoveL [[116.5182, 68.3795,-18.3758],[0.5456,0.0119,0.0693,0.8351],[-1,0,-2,0],[9E9,9E9,9E9,9E9,9E9,9E9]],[ 11.2217,500,5000,1000],z10,toolsj\WObj:=shangjiao;
MoveL [[115.6422, 68.0121,-18.0624],[0.5456,0.0119,0.0693,0.8351],[-1,0,-2,0],[9E9,9E9,9E9,9E9,9E9,9E9]],[ 18.7887,500,5000,1000],z10,toolsj\WObj:=shangjiao;
MoveL [[114.7746, 67.6558,-17.7120],[0.5455,0.0115,0.0694,0.8352],[-1,0,-2,0],[9E9,9E9,9E9,9E9,9E9,9E9]],[ 16.2134,500,5000,1000],z10,toolsj\WObj:=shangjiao;
MoveL [[113.9110, 67.2936,-17.3609],[0.5455,0.0115,0.0694,0.8352],[-1,0,-2,0],[9E9,9E9,9E9,9E9,9E9,9E9]],[ 14.6376,500,5000,1000],z10,toolsj\WObj:=shangjiao;
MoveL [[113.0465, 66.9314,-17.0120],[0.5455,0.0115,0.0694,0.8352],[-1,0,-2,0],[9E9,9E9,9E9,9E9,9E9,9E9]],[ 13.4227,500,5000,1000],z10,toolsj\WObj:=shangjiao;
MoveL [[113.0465, 66.9314, -7.0120],[0.5455,0.0115,0.0694,0.8352],[-1,0,-2,0],[9E9,9E9,9E9,9E9,9E9,9E9]],[  3.0000,500,5000,1000],z10,toolsj\WObj:=shangjiao;
MoveL [[177.9581,115.2055,-35.9292],[0.5440,0.0062,0.0716,0.8360],[-1,0,-2,0],[9E9,9E9,9E9,9E9,9E9,9E9]],[ 10.0000,500,5000,1000],z10,toolsj\WObj:=shangjiao;
MoveL [[177.9581,115.2055,-45.9292],[0.5440,0.0062,0.0716,0.8360],[-1,0,-2,0],[9E9,9E9,9E9,9E9,9E9,9E9]],[  3.0000,500,5000,1000],z10,toolsj\WObj:=shangjiao;
MoveL [[178.8398,115.5752,-46.2253],[0.5440,0.0062,0.0716,0.8360],[-1,0,-2,0],[9E9,9E9,9E9,9E9,9E9,9E9]],[  5.6264,500,5000,1000],z10,toolsj\WObj:=shangjiao;
MoveL [[179.7262,115.9287,-46.5367],[0.5443,0.0071,0.0713,0.8358],[-1,0,-2,0],[9E9,9E9,9E9,9E9,9E9,9E9]],[  6.2270,500,5000,1000],z10,toolsj\WObj:=shangjiao;
MoveL [[180.6059,116.2976,-46.8389],[0.5443,0.0071,0.0713,0.8358],[-1,0,-2,0],[9E9,9E9,9E9,9E9,9E9,9E9]],[  6.1899,500,5000,1000],z10,toolsj\WObj:=shangjiao;
MoveL [[181.4662,116.6609,-47.1959],[0.5442,0.0070,0.0713,0.8359],[-1,0,-2,0],[9E9,9E9,9E9,9E9,9E9,9E9]],[  4.6614,500,5000,1000],z10,toolsj\WObj:=shangjiao;
MoveL [[182.3352,117.0156,-47.5459],[0.5444,0.0075,0.0711,0.8358],[-1,0,-2,0],[9E9,9E9,9E9,9E9,9E9,9E9]],[  4.5741,500,5000,1000],z10,toolsj\WObj:=shangjiao;
MoveL [[183.2277,117.3801,-47.8250],[0.5445,0.0079,0.0709,0.8357],[-1,0,-2,0],[9E9,9E9,9E9,9E9,9E9,9E9]],[  5.0400,500,5000,1000],z10,toolsj\WObj:=shangjiao;
MoveL [[184.0786,117.7414,-48.2075],[0.5444,0.0077,0.0710,0.8358],[-1,0,-2,0],[9E9,9E9,9E9,9E9,9E9,9E9]],[  5.1863,500,5000,1000],z10,toolsj\WObj:=shangjiao;
MoveL [[184.9581,118.1103,-48.5103],[0.5444,0.0077,0.0710,0.8358],[-1,0,-2,0],[9E9,9E9,9E9,9E9,9E9,9E9]],[  5.4354,500,5000,1000],z10,toolsj\WObj:=shangjiao;
MoveL [[185.8024,118.4657,-48.9178],[0.5444,0.0077,0.0710,0.8358],[-1,0,-2,0],[9E9,9E9,9E9,9E9,9E9,9E9]],[  5.3353,500,5000,1000],z10,toolsj\WObj:=shangjiao;
MoveL [[186.7230,118.8260,-49.1367],[0.5448,0.0089,0.0705,0.8356],[-1,0,-2,0],[9E9,9E9,9E9,9E9,9E9,9E9]],[  4.9889,500,5000,1000],z10,toolsj\WObj:=shangjiao;
MoveL [[187.5645,119.1886,-49.5396],[0.5446,0.0084,0.0707,0.8356],[-1,0,-2,0],[9E9,9E9,9E9,9E9,9E9,9E9]],[  4.9009,500,5000,1000],z10,toolsj\WObj:=shangjiao;
MoveL [[188.4303,119.5562,-49.8770],[0.5446,0.0082,0.0708,0.8357],[-1,0,-2,0],[9E9,9E9,9E9,9E9,9E9,9E9]],[  4.8796,500,5000,1000],z10,toolsj\WObj:=shangjiao;
MoveL [[189.3096,119.9249,-50.1805],[0.5446,0.0082,0.0708,0.8357],[-1,0,-2,0],[9E9,9E9,9E9,9E9,9E9,9E9]],[  4.9728,500,5000,1000],z10,toolsj\WObj:=shangjiao;
MoveL [[190.1933,120.2771,-50.4994],[0.5448,0.0091,0.0704,0.8355],[-1,0,-2,0],[9E9,9E9,9E9,9E9,9E9,9E9]],[  5.3620,500,5000,1000],z10,toolsj\WObj:=shangjiao;
MoveL [[191.0717,120.6455,-50.8057],[0.5448,0.0091,0.0704,0.8355],[-1,0,-2,0],[9E9,9E9,9E9,9E9,9E9,9E9]],[  5.3718,500,5000,1000],z10,toolsj\WObj:=shangjiao;
MoveL [[191.9079,120.9915,-51.2470],[0.5449,0.0093,0.0703,0.8355],[-1,0,-2,0],[9E9,9E9,9E9,9E9,9E9,9E9]],[  5.0981,500,5000,1000],z10,toolsj\WObj:=shangjiao;
MoveL [[192.8223,121.3750,-51.4439],[0.5449,0.0093,0.0703,0.8355],[-1,0,-2,0],[9E9,9E9,9E9,9E9,9E9,9E9]],[  4.4568,500,5000,1000],z10,toolsj\WObj:=shangjiao;
MoveL [[193.6653,121.7240,-51.8646],[0.5449,0.0096,0.0703,0.8355],[-1,0,-2,0],[9E9,9E9,9E9,9E9,9E9,9E9]],[  4.4235,500,5000,1000],z10,toolsj\WObj:=shangjiao;
MoveL [[194.5415,122.0915,-52.1776],[0.5449,0.0096,0.0703,0.8355],[-1,0,-2,0],[9E9,9E9,9E9,9E9,9E9,9E9]],[  5.1497,500,5000,1000],z10,toolsj\WObj:=shangjiao;
MoveL [[195.4087,122.4594,-52.5110],[0.5449,0.0094,0.0703,0.8355],[-1,0,-2,0],[9E9,9E9,9E9,9E9,9E9,9E9]],[  5.4314,500,5000,1000],z10,toolsj\WObj:=shangjiao;
MoveL [[196.2517,122.8229,-52.9093],[0.5448,0.0089,0.0705,0.8356],[-1,0,-2,0],[9E9,9E9,9E9,9E9,9E9,9E9]],[  6.0257,500,5000,1000],z10,toolsj\WObj:=shangjiao;
MoveL [[197.1627,123.1776,-53.1589],[0.5451,0.0102,0.0700,0.8354],[-1,0,-2,0],[9E9,9E9,9E9,9E9,9E9,9E9]],[  5.9122,500,5000,1000],z10,toolsj\WObj:=shangjiao;
MoveL [[198.0126,123.5384,-53.5450],[0.5451,0.0100,0.0701,0.8354],[-1,0,-2,0],[9E9,9E9,9E9,9E9,9E9,9E9]],[  5.8613,500,5000,1000],z10,toolsj\WObj:=shangjiao;
MoveL [[198.0126,123.5384,-43.5450],[0.5451,0.0100,0.0701,0.8354],[-1,0,-2,0],[9E9,9E9,9E9,9E9,9E9,9E9]],[  3.0000,500,5000,1000],z10,toolsj\WObj:=shangjiao;
MoveL [[183.3183,132.4610,-40.9486],[0.5419,-0.0015,0.0744,0.8371],[-1,0,-2,0],[9E9,9E9,9E9,9E9,9E9,9E9]],[ 10.0000,500,5000,1000],z10,toolsj\WObj:=shangjiao;
MoveL [[183.3183,132.4610,-50.9486],[0.5419,-0.0015,0.0744,0.8371],[-1,0,-2,0],[9E9,9E9,9E9,9E9,9E9,9E9]],[  3.0000,500,5000,1000],z10,toolsj\WObj:=shangjiao;
MoveL [[182.4305,132.1115,-50.6314],[0.5416,-0.0026,0.0748,0.8373],[-1,0,-2,0],[9E9,9E9,9E9,9E9,9E9,9E9]],[  9.0603,500,5000,1000],z10,toolsj\WObj:=shangjiao;
MoveL [[181.5517,131.7383,-50.3346],[0.5417,-0.0023,0.0747,0.8372],[-1,0,-2,0],[9E9,9E9,9E9,9E9,9E9,9E9]],[  7.8396,500,5000,1000],z10,toolsj\WObj:=shangjiao;
MoveL [[180.7139,131.3977,-49.8863],[0.5416,-0.0028,0.0749,0.8373],[-1,0,-2,0],[9E9,9E9,9E9,9E9,9E9,9E9]],[  6.9037,500,5000,1000],z10,toolsj\WObj:=shangjiao;
MoveL [[179.7873,131.0200,-49.7076],[0.5414,-0.0034,0.0750,0.8374],[-1,0,-2,0],[9E9,9E9,9E9,9E9,9E9,9E9]],[  7.1414,500,5000,1000],z10,toolsj\WObj:=shangjiao;
MoveL [[178.9566,130.6684,-49.2621],[0.5415,-0.0032,0.0750,0.8374],[-1,0,-2,0],[9E9,9E9,9E9,9E9,9E9,9E9]],[  7.4617,500,5000,1000],z10,toolsj\WObj:=shangjiao;
MoveL [[178.0750,130.2987,-48.9657],[0.5415,-0.0032,0.0750,0.8374],[-1,0,-2,0],[9E9,9E9,9E9,9E9,9E9,9E9]],[  8.6179,500,5000,1000],z10,toolsj\WObj:=shangjiao;
MoveL [[177.1873,129.9492,-48.6479],[0.5412,-0.0043,0.0753,0.8375],[-1,0,-2,0],[9E9,9E9,9E9,9E9,9E9,9E9]],[ 17.2157,500,5000,1000],z10,toolsj\WObj:=shangjiao;
MoveL [[176.3057,129.5795,-48.3515],[0.5412,-0.0043,0.0753,0.8375],[-1,0,-2,0],[9E9,9E9,9E9,9E9,9E9,9E9]],[  9.4565,500,5000,1000],z10,toolsj\WObj:=shangjiao;
MoveL [[175.4485,129.2173,-47.9856],[0.5412,-0.0041,0.0753,0.8375],[-1,0,-2,0],[9E9,9E9,9E9,9E9,9E9,9E9]],[  6.2344,500,5000,1000],z10,toolsj\WObj:=shangjiao;
MoveL [[174.6002,128.8589,-47.5928],[0.5412,-0.0040,0.0752,0.8375],[-1,0,-2,0],[9E9,9E9,9E9,9E9,9E9,9E9]],[  6.1452,500,5000,1000],z10,toolsj\WObj:=shangjiao;
MoveL [[173.7186,128.4892,-47.2964],[0.5412,-0.0040,0.0752,0.8375],[-1,0,-2,0],[9E9,9E9,9E9,9E9,9E9,9E9]],[  6.1607,500,5000,1000],z10,toolsj\WObj:=shangjiao;
MoveL [[172.8316,128.1372,-46.9810],[0.5410,-0.0050,0.0755,0.8376],[-1,0,-2,0],[9E9,9E9,9E9,9E9,9E9,9E9]],[  7.5760,500,5000,1000],z10,toolsj\WObj:=shangjiao;
MoveL [[171.9316,127.7762,-46.7115],[0.5408,-0.0057,0.0758,0.8377],[-1,0,-2,0],[9E9,9E9,9E9,9E9,9E9,9E9]],[ 14.9401,500,5000,1000],z10,toolsj\WObj:=shangjiao;
MoveL [[171.1096,127.4154,-46.2625],[0.5410,-0.0050,0.0755,0.8376],[-1,0,-2,0],[9E9,9E9,9E9,9E9,9E9,9E9]],[  7.3732,500,5000,1000],z10,toolsj\WObj:=shangjiao;
MoveL [[170.1963,127.0443,-46.0410],[0.5408,-0.0055,0.0757,0.8377],[-1,0,-2,0],[9E9,9E9,9E9,9E9,9E9,9E9]],[  6.5533,500,5000,1000],z10,toolsj\WObj:=shangjiao;
MoveL [[169.3441,126.6988,-45.6343],[0.5407,-0.0061,0.0759,0.8378],[-1,0,-2,0],[9E9,9E9,9E9,9E9,9E9,9E9]],[  5.6235,500,5000,1000],z10,toolsj\WObj:=shangjiao;
MoveL [[168.4738,126.3314,-45.3078],[0.5407,-0.0060,0.0759,0.8378],[-1,0,-2,0],[9E9,9E9,9E9,9E9,9E9,9E9]],[  5.2744,500,5000,1000],z10,toolsj\WObj:=shangjiao;
MoveL [[167.5918,125.9616,-45.0124],[0.5407,-0.0060,0.0759,0.8378],[-1,0,-2,0],[9E9,9E9,9E9,9E9,9E9,9E9]],[  5.1955,500,5000,1000],z10,toolsj\WObj:=shangjiao;
MoveL [[166.7554,125.6151,-44.5710],[0.5406,-0.0062,0.0759,0.8378],[-1,0,-2,0],[9E9,9E9,9E9,9E9,9E9,9E9]],[  4.5894,500,5000,1000],z10,toolsj\WObj:=shangjiao;
MoveL [[166.7554,125.6151,-34.5710],[0.5406,-0.0062,0.0759,0.8378],[-1,0,-2,0],[9E9,9E9,9E9,9E9,9E9,9E9]],[  3.0000,500,5000,1000],z10,toolsj\WObj:=shangjiao;
FCstatus :=1;
MoveL [[166.7554,125.6151, 15.4290],[0.5406,-0.0062,0.0759,0.8378],[-1,0,-2,0],[9E9,9E9,9E9,9E9,9E9,9E9]],[ 10.0000,500,5000,1000],z10,toolsj\WObj:=shangjiao;
MoveL [[176.6164,-115.7674, 14.3432],[0.8366,0.0719,0.0054,0.5431],[-1,0,-2,0],[9E9,9E9,9E9,9E9,9E9,9E9]],[ 20.0000,500,5000,1000],z10,toolsj\WObj:=shangjiao;
MoveL [[176.6164,-115.7674,-35.6568],[0.8366,0.0719,0.0054,0.5431],[-1,0,-2,0],[9E9,9E9,9E9,9E9,9E9,9E9]],[ 10.0000,500,5000,1000],z10,toolsj\WObj:=shangjiao;
FCstatus :=2;
MoveL [[176.6164,-115.7674,-45.6568],[0.8366,0.0719,0.0054,0.5431],[-1,0,-2,0],[9E9,9E9,9E9,9E9,9E9,9E9]],[  3.0000,500,5000,1000],z10,toolsj\WObj:=shangjiao;
MoveL [[177.5234,-116.1285,-45.9079],[0.8364,0.0715,0.0064,0.5434],[-1,0,-2,0],[9E9,9E9,9E9,9E9,9E9,9E9]],[  5.3182,500,5000,1000],z10,toolsj\WObj:=shangjiao;
MoveL [[178.4027,-116.4988,-46.2097],[0.8364,0.0715,0.0064,0.5434],[-1,0,-2,0],[9E9,9E9,9E9,9E9,9E9,9E9]],[  6.4291,500,5000,1000],z10,toolsj\WObj:=shangjiao;
MoveL [[179.2693,-116.8683,-46.5428],[0.8365,0.0716,0.0062,0.5433],[-1,0,-2,0],[9E9,9E9,9E9,9E9,9E9,9E9]],[  5.3987,500,5000,1000],z10,toolsj\WObj:=shangjiao;
MoveL [[180.1218,-117.2190,-46.9398],[0.8364,0.0714,0.0067,0.5434],[-1,0,-2,0],[9E9,9E9,9E9,9E9,9E9,9E9]],[  4.8364,500,5000,1000],z10,toolsj\WObj:=shangjiao;
MoveL [[181.0161,-117.5865,-47.2105],[0.8363,0.0712,0.0071,0.5435],[-1,0,-2,0],[9E9,9E9,9E9,9E9,9E9,9E9]],[  4.8057,500,5000,1000],z10,toolsj\WObj:=shangjiao;
MoveL [[181.8692,-117.9489,-47.5873],[0.8363,0.0713,0.0070,0.5435],[-1,0,-2,0],[9E9,9E9,9E9,9E9,9E9,9E9]],[  4.5254,500,5000,1000],z10,toolsj\WObj:=shangjiao;
MoveL [[182.7470,-118.3186,-47.8934],[0.8363,0.0713,0.0070,0.5435],[-1,0,-2,0],[9E9,9E9,9E9,9E9,9E9,9E9]],[  4.7936,500,5000,1000],z10,toolsj\WObj:=shangjiao;
MoveL [[183.5980,-118.6819,-48.2739],[0.8364,0.0714,0.0068,0.5434],[-1,0,-2,0],[9E9,9E9,9E9,9E9,9E9,9E9]],[  4.9740,500,5000,1000],z10,toolsj\WObj:=shangjiao;
MoveL [[184.4818,-119.0445,-48.5770],[0.8363,0.0712,0.0073,0.5436],[-1,0,-2,0],[9E9,9E9,9E9,9E9,9E9,9E9]],[  4.8559,500,5000,1000],z10,toolsj\WObj:=shangjiao;
MoveL [[185.3367,-119.3971,-48.9653],[0.8362,0.0710,0.0076,0.5437],[-1,0,-2,0],[9E9,9E9,9E9,9E9,9E9,9E9]],[  5.0134,500,5000,1000],z10,toolsj\WObj:=shangjiao;
MoveL [[186.2118,-119.7685,-49.2753],[0.8363,0.0711,0.0075,0.5436],[-1,0,-2,0],[9E9,9E9,9E9,9E9,9E9,9E9]],[  4.9480,500,5000,1000],z10,toolsj\WObj:=shangjiao;
MoveL [[187.0895,-120.1383,-49.5818],[0.8363,0.0711,0.0075,0.5436],[-1,0,-2,0],[9E9,9E9,9E9,9E9,9E9,9E9]],[  4.7113,500,5000,1000],z10,toolsj\WObj:=shangjiao;
MoveL [[187.9726,-120.4915,-49.9019],[0.8361,0.0707,0.0084,0.5439],[-1,0,-2,0],[9E9,9E9,9E9,9E9,9E9,9E9]],[  4.9412,500,5000,1000],z10,toolsj\WObj:=shangjiao;
MoveL [[188.8503,-120.8612,-50.2084],[0.8361,0.0707,0.0084,0.5439],[-1,0,-2,0],[9E9,9E9,9E9,9E9,9E9,9E9]],[  4.7950,500,5000,1000],z10,toolsj\WObj:=shangjiao;
MoveL [[189.6825,-121.2170,-50.6451],[0.8362,0.0708,0.0082,0.5438],[-1,0,-2,0],[9E9,9E9,9E9,9E9,9E9,9E9]],[  4.9098,500,5000,1000],z10,toolsj\WObj:=shangjiao;
MoveL [[190.5528,-121.5924,-50.9604],[0.8362,0.0710,0.0078,0.5437],[-1,0,-2,0],[9E9,9E9,9E9,9E9,9E9,9E9]],[  4.9415,500,5000,1000],z10,toolsj\WObj:=shangjiao;
MoveL [[191.4383,-121.9426,-51.2792],[0.8361,0.0705,0.0089,0.5440],[-1,0,-2,0],[9E9,9E9,9E9,9E9,9E9,9E9]],[  4.6954,500,5000,1000],z10,toolsj\WObj:=shangjiao;
MoveL [[192.3146,-122.3120,-51.5894],[0.8361,0.0705,0.0089,0.5440],[-1,0,-2,0],[9E9,9E9,9E9,9E9,9E9,9E9]],[  4.6368,500,5000,1000],z10,toolsj\WObj:=shangjiao;
MoveL [[193.1888,-122.6845,-51.9000],[0.8361,0.0706,0.0087,0.5440],[-1,0,-2,0],[9E9,9E9,9E9,9E9,9E9,9E9]],[  4.4349,500,5000,1000],z10,toolsj\WObj:=shangjiao;
MoveL [[194.0303,-123.0310,-52.3293],[0.8360,0.0704,0.0091,0.5441],[-1,0,-2,0],[9E9,9E9,9E9,9E9,9E9,9E9]],[  4.7620,500,5000,1000],z10,toolsj\WObj:=shangjiao;
MoveL [[194.9456,-123.4069,-52.5365],[0.8360,0.0702,0.0096,0.5442],[-1,0,-2,0],[9E9,9E9,9E9,9E9,9E9,9E9]],[  5.2080,500,5000,1000],z10,toolsj\WObj:=shangjiao;
MoveL [[195.7614,-123.7697,-53.0017],[0.8361,0.0706,0.0087,0.5440],[-1,0,-2,0],[9E9,9E9,9E9,9E9,9E9,9E9]],[  5.1184,500,5000,1000],z10,toolsj\WObj:=shangjiao;
MoveL [[196.6572,-124.1312,-53.2780],[0.8360,0.0703,0.0094,0.5442],[-1,0,-2,0],[9E9,9E9,9E9,9E9,9E9,9E9]],[  5.5962,500,5000,1000],z10,toolsj\WObj:=shangjiao;
MoveL [[197.5159,-124.4995,-53.6321],[0.8360,0.0704,0.0091,0.5441],[-1,0,-2,0],[9E9,9E9,9E9,9E9,9E9,9E9]],[  5.5713,500,5000,1000],z10,toolsj\WObj:=shangjiao;
MoveL [[197.5159,-124.4995,-43.6321],[0.8360,0.0704,0.0091,0.5441],[-1,0,-2,0],[9E9,9E9,9E9,9E9,9E9,9E9]],[  3.0000,500,5000,1000],z10,toolsj\WObj:=shangjiao;
MoveL [[208.4734,-105.7320,-43.7521],[0.8334,0.0626,0.0254,0.5485],[-1,0,-2,0],[9E9,9E9,9E9,9E9,9E9,9E9]],[ 10.0000,500,5000,1000],z10,toolsj\WObj:=shangjiao;
MoveL [[208.4734,-105.7320,-53.7521],[0.8334,0.0626,0.0254,0.5485],[-1,0,-2,0],[9E9,9E9,9E9,9E9,9E9,9E9]],[  3.0000,500,5000,1000],z10,toolsj\WObj:=shangjiao;
MoveL [[207.6038,-105.3627,-53.4249],[0.8334,0.0625,0.0256,0.5486],[-1,0,-2,0],[9E9,9E9,9E9,9E9,9E9,9E9]],[  6.4259,500,5000,1000],z10,toolsj\WObj:=shangjiao;
MoveL [[206.7479,-105.0050,-53.0481],[0.8334,0.0626,0.0254,0.5485],[-1,0,-2,0],[9E9,9E9,9E9,9E9,9E9,9E9]],[  6.1514,500,5000,1000],z10,toolsj\WObj:=shangjiao;
MoveL [[205.8567,-104.6368,-52.7735],[0.8335,0.0628,0.0251,0.5484],[-1,0,-2,0],[9E9,9E9,9E9,9E9,9E9,9E9]],[  5.2628,500,5000,1000],z10,toolsj\WObj:=shangjiao;
MoveL [[205.0075,-104.2721,-52.3893],[0.8334,0.0626,0.0254,0.5485],[-1,0,-2,0],[9E9,9E9,9E9,9E9,9E9,9E9]],[  5.2075,500,5000,1000],z10,toolsj\WObj:=shangjiao;
MoveL [[204.1348,-103.9044,-52.0677],[0.8334,0.0626,0.0254,0.5485],[-1,0,-2,0],[9E9,9E9,9E9,9E9,9E9,9E9]],[  5.7297,500,5000,1000],z10,toolsj\WObj:=shangjiao;
MoveL [[203.2676,-103.5360,-51.7334],[0.8334,0.0625,0.0255,0.5486],[-1,0,-2,0],[9E9,9E9,9E9,9E9,9E9,9E9]],[  5.8710,500,5000,1000],z10,toolsj\WObj:=shangjiao;
MoveL [[202.4084,-103.1737,-51.3711],[0.8334,0.0625,0.0255,0.5486],[-1,0,-2,0],[9E9,9E9,9E9,9E9,9E9,9E9]],[  5.3066,500,5000,1000],z10,toolsj\WObj:=shangjiao;
MoveL [[201.5236,-102.8120,-51.0715],[0.8335,0.0628,0.0250,0.5484],[-1,0,-2,0],[9E9,9E9,9E9,9E9,9E9,9E9]],[  4.8814,500,5000,1000],z10,toolsj\WObj:=shangjiao;
MoveL [[200.6689,-102.4446,-50.7049],[0.8334,0.0626,0.0253,0.5485],[-1,0,-2,0],[9E9,9E9,9E9,9E9,9E9,9E9]],[  5.1118,500,5000,1000],z10,toolsj\WObj:=shangjiao;
MoveL [[199.7962,-102.0769,-50.3833],[0.8334,0.0626,0.0253,0.5485],[-1,0,-2,0],[9E9,9E9,9E9,9E9,9E9,9E9]],[  5.1811,500,5000,1000],z10,toolsj\WObj:=shangjiao;
MoveL [[198.9188,-101.7218,-50.0569],[0.8335,0.0630,0.0246,0.5483],[-1,0,-2,0],[9E9,9E9,9E9,9E9,9E9,9E9]],[  5.3252,500,5000,1000],z10,toolsj\WObj:=shangjiao;
MoveL [[198.0461,-101.3540,-49.7352],[0.8335,0.0630,0.0246,0.5483],[-1,0,-2,0],[9E9,9E9,9E9,9E9,9E9,9E9]],[  5.4045,500,5000,1000],z10,toolsj\WObj:=shangjiao;
MoveL [[197.1950,-100.9883,-49.3573],[0.8335,0.0629,0.0249,0.5484],[-1,0,-2,0],[9E9,9E9,9E9,9E9,9E9,9E9]],[  4.8433,500,5000,1000],z10,toolsj\WObj:=shangjiao;
MoveL [[196.2942,-100.6362,-49.0849],[0.8337,0.0636,0.0236,0.5480],[-1,0,-2,0],[9E9,9E9,9E9,9E9,9E9,9E9]],[  4.9233,500,5000,1000],z10,toolsj\WObj:=shangjiao;
MoveL [[195.4464,-100.2664,-48.7041],[0.8336,0.0632,0.0242,0.5482],[-1,0,-2,0],[9E9,9E9,9E9,9E9,9E9,9E9]],[  5.1959,500,5000,1000],z10,toolsj\WObj:=shangjiao;
MoveL [[194.5801,-99.8946,-48.3721],[0.8335,0.0631,0.0245,0.5483],[-1,0,-2,0],[9E9,9E9,9E9,9E9,9E9,9E9]],[  5.0846,500,5000,1000],z10,toolsj\WObj:=shangjiao;
MoveL [[193.7074,-99.5269,-48.0504],[0.8335,0.0631,0.0245,0.5483],[-1,0,-2,0],[9E9,9E9,9E9,9E9,9E9,9E9]],[  5.2161,500,5000,1000],z10,toolsj\WObj:=shangjiao;
MoveL [[192.8588,-99.1697,-47.6549],[0.8336,0.0631,0.0245,0.5483],[-1,0,-2,0],[9E9,9E9,9E9,9E9,9E9,9E9]],[  4.9885,500,5000,1000],z10,toolsj\WObj:=shangjiao;
MoveL [[191.9625,-98.7925,-47.4043],[0.8336,0.0631,0.0245,0.5483],[-1,0,-2,0],[9E9,9E9,9E9,9E9,9E9,9E9]],[  5.0150,500,5000,1000],z10,toolsj\WObj:=shangjiao;
MoveL [[191.1148,-98.4356,-47.0065],[0.8336,0.0631,0.0244,0.5483],[-1,0,-2,0],[9E9,9E9,9E9,9E9,9E9,9E9]],[  5.1146,500,5000,1000],z10,toolsj\WObj:=shangjiao;
MoveL [[190.2421,-98.0679,-46.6848],[0.8336,0.0631,0.0244,0.5483],[-1,0,-2,0],[9E9,9E9,9E9,9E9,9E9,9E9]],[  5.5089,500,5000,1000],z10,toolsj\WObj:=shangjiao;
MoveL [[189.3645,-97.7138,-46.3575],[0.8337,0.0635,0.0236,0.5481],[-1,0,-2,0],[9E9,9E9,9E9,9E9,9E9,9E9]],[  5.3122,500,5000,1000],z10,toolsj\WObj:=shangjiao;
MoveL [[188.4919,-97.3461,-46.0357],[0.8337,0.0635,0.0236,0.5481],[-1,0,-2,0],[9E9,9E9,9E9,9E9,9E9,9E9]],[  5.2196,500,5000,1000],z10,toolsj\WObj:=shangjiao;
MoveL [[187.6282,-96.9750,-45.6960],[0.8336,0.0634,0.0240,0.5481],[-1,0,-2,0],[9E9,9E9,9E9,9E9,9E9,9E9]],[  5.1745,500,5000,1000],z10,toolsj\WObj:=shangjiao;
MoveL [[186.7771,-96.6054,-45.3233],[0.8335,0.0631,0.0245,0.5483],[-1,0,-2,0],[9E9,9E9,9E9,9E9,9E9,9E9]],[  5.0777,500,5000,1000],z10,toolsj\WObj:=shangjiao;
MoveL [[185.8799,-96.2527,-45.0426],[0.8338,0.0637,0.0233,0.5480],[-1,0,-2,0],[9E9,9E9,9E9,9E9,9E9,9E9]],[  4.9709,500,5000,1000],z10,toolsj\WObj:=shangjiao;
MoveL [[185.0255,-95.8872,-44.6727],[0.8337,0.0636,0.0235,0.5480],[-1,0,-2,0],[9E9,9E9,9E9,9E9,9E9,9E9]],[  5.1054,500,5000,1000],z10,toolsj\WObj:=shangjiao;
MoveL [[184.1529,-95.5194,-44.3509],[0.8337,0.0636,0.0235,0.5480],[-1,0,-2,0],[9E9,9E9,9E9,9E9,9E9,9E9]],[  5.2846,500,5000,1000],z10,toolsj\WObj:=shangjiao;
MoveL [[183.2970,-95.1514,-43.9880],[0.8337,0.0634,0.0239,0.5481],[-1,0,-2,0],[9E9,9E9,9E9,9E9,9E9,9E9]],[  5.5819,500,5000,1000],z10,toolsj\WObj:=shangjiao;
MoveL [[182.4175,-94.7892,-43.6755],[0.8337,0.0636,0.0235,0.5480],[-1,0,-2,0],[9E9,9E9,9E9,9E9,9E9,9E9]],[  5.6762,500,5000,1000],z10,toolsj\WObj:=shangjiao;
MoveL [[181.5480,-94.4309,-43.3336],[0.8338,0.0638,0.0231,0.5479],[-1,0,-2,0],[9E9,9E9,9E9,9E9,9E9,9E9]],[  5.1258,500,5000,1000],z10,toolsj\WObj:=shangjiao;
MoveL [[180.6859,-94.0621,-42.9872],[0.8337,0.0637,0.0233,0.5480],[-1,0,-2,0],[9E9,9E9,9E9,9E9,9E9,9E9]],[  4.8369,500,5000,1000],z10,toolsj\WObj:=shangjiao;
MoveL [[179.8133,-93.6944,-42.6655],[0.8337,0.0637,0.0233,0.5480],[-1,0,-2,0],[9E9,9E9,9E9,9E9,9E9,9E9]],[  5.2276,500,5000,1000],z10,toolsj\WObj:=shangjiao;
MoveL [[178.9358,-93.3399,-42.3379],[0.8339,0.0641,0.0226,0.5478],[-1,0,-2,0],[9E9,9E9,9E9,9E9,9E9,9E9]],[  5.9568,500,5000,1000],z10,toolsj\WObj:=shangjiao;
MoveL [[178.0632,-92.9722,-42.0161],[0.8339,0.0641,0.0226,0.5478],[-1,0,-2,0],[9E9,9E9,9E9,9E9,9E9,9E9]],[  6.3500,500,5000,1000],z10,toolsj\WObj:=shangjiao;
MoveL [[177.2166,-92.6077,-41.6252],[0.8338,0.0639,0.0229,0.5479],[-1,0,-2,0],[9E9,9E9,9E9,9E9,9E9,9E9]],[  6.9330,500,5000,1000],z10,toolsj\WObj:=shangjiao;
MoveL [[176.3477,-92.2333,-41.3034],[0.8337,0.0637,0.0233,0.5480],[-1,0,-2,0],[9E9,9E9,9E9,9E9,9E9,9E9]],[  6.3986,500,5000,1000],z10,toolsj\WObj:=shangjiao;
MoveL [[175.4692,-91.8817,-40.9745],[0.8339,0.0642,0.0224,0.5477],[-1,0,-2,0],[9E9,9E9,9E9,9E9,9E9,9E9]],[  6.3714,500,5000,1000],z10,toolsj\WObj:=shangjiao;
MoveL [[174.5965,-91.5140,-40.6527],[0.8339,0.0642,0.0224,0.5477],[-1,0,-2,0],[9E9,9E9,9E9,9E9,9E9,9E9]],[  5.7237,500,5000,1000],z10,toolsj\WObj:=shangjiao;
MoveL [[173.7283,-91.1407,-40.3275],[0.8338,0.0640,0.0228,0.5478],[-1,0,-2,0],[9E9,9E9,9E9,9E9,9E9,9E9]],[  6.7547,500,5000,1000],z10,toolsj\WObj:=shangjiao;
MoveL [[172.8809,-90.7757,-39.9397],[0.8338,0.0638,0.0231,0.5479],[-1,0,-2,0],[9E9,9E9,9E9,9E9,9E9,9E9]],[  7.7412,500,5000,1000],z10,toolsj\WObj:=shangjiao;
MoveL [[172.0082,-90.4080,-39.6180],[0.8338,0.0638,0.0231,0.5479],[-1,0,-2,0],[9E9,9E9,9E9,9E9,9E9,9E9]],[  7.7516,500,5000,1000],z10,toolsj\WObj:=shangjiao;
MoveL [[171.1312,-90.0522,-39.2910],[0.8339,0.0642,0.0225,0.5477],[-1,0,-2,0],[9E9,9E9,9E9,9E9,9E9,9E9]],[  7.1025,500,5000,1000],z10,toolsj\WObj:=shangjiao;
MoveL [[170.2557,-89.6925,-38.9656],[0.8340,0.0644,0.0220,0.5476],[-1,0,-2,0],[9E9,9E9,9E9,9E9,9E9,9E9]],[  7.2727,500,5000,1000],z10,toolsj\WObj:=shangjiao;
MoveL [[169.3968,-89.3178,-38.6190],[0.8339,0.0641,0.0226,0.5478],[-1,0,-2,0],[9E9,9E9,9E9,9E9,9E9,9E9]],[  5.8246,500,5000,1000],z10,toolsj\WObj:=shangjiao;
MoveL [[168.5254,-88.9598,-38.2810],[0.8339,0.0643,0.0222,0.5476],[-1,0,-2,0],[9E9,9E9,9E9,9E9,9E9,9E9]],[  7.1296,500,5000,1000],z10,toolsj\WObj:=shangjiao;
MoveL [[167.6473,-88.5991,-37.9633],[0.8340,0.0645,0.0217,0.5475],[-1,0,-2,0],[9E9,9E9,9E9,9E9,9E9,9E9]],[  7.0672,500,5000,1000],z10,toolsj\WObj:=shangjiao;
MoveL [[166.7905,-88.2303,-37.6039],[0.8340,0.0644,0.0221,0.5476],[-1,0,-2,0],[9E9,9E9,9E9,9E9,9E9,9E9]],[  7.5612,500,5000,1000],z10,toolsj\WObj:=shangjiao;
MoveL [[165.9179,-87.8626,-37.2822],[0.8340,0.0644,0.0221,0.5476],[-1,0,-2,0],[9E9,9E9,9E9,9E9,9E9,9E9]],[  7.0035,500,5000,1000],z10,toolsj\WObj:=shangjiao;
MoveL [[165.0386,-87.5132,-36.9517],[0.8341,0.0649,0.0211,0.5473],[-1,0,-2,0],[9E9,9E9,9E9,9E9,9E9,9E9]],[  6.4246,500,5000,1000],z10,toolsj\WObj:=shangjiao;
MoveL [[164.1660,-87.1455,-36.6299],[0.8341,0.0649,0.0211,0.5473],[-1,0,-2,0],[9E9,9E9,9E9,9E9,9E9,9E9]],[  6.4038,500,5000,1000],z10,toolsj\WObj:=shangjiao;
MoveL [[163.3156,-86.7769,-36.2544],[0.8340,0.0646,0.0215,0.5475],[-1,0,-2,0],[9E9,9E9,9E9,9E9,9E9,9E9]],[  7.1850,500,5000,1000],z10,toolsj\WObj:=shangjiao;
MoveL [[162.4511,-86.4049,-35.9185],[0.8340,0.0644,0.0219,0.5476],[-1,0,-2,0],[9E9,9E9,9E9,9E9,9E9,9E9]],[  8.2643,500,5000,1000],z10,toolsj\WObj:=shangjiao;
MoveL [[161.5785,-86.0372,-35.5967],[0.8340,0.0644,0.0219,0.5476],[-1,0,-2,0],[9E9,9E9,9E9,9E9,9E9,9E9]],[  8.6088,500,5000,1000],z10,toolsj\WObj:=shangjiao;
MoveL [[160.7000,-85.6855,-35.2673],[0.8341,0.0649,0.0210,0.5473],[-1,0,-2,0],[9E9,9E9,9E9,9E9,9E9,9E9]],[  6.3647,500,5000,1000],z10,toolsj\WObj:=shangjiao;
MoveL [[159.8200,-85.3300,-34.9467],[0.8343,0.0653,0.0203,0.5471],[-1,0,-2,0],[9E9,9E9,9E9,9E9,9E9,9E9]],[  5.9522,500,5000,1000],z10,toolsj\WObj:=shangjiao;
MoveL [[158.9771,-84.9625,-34.5512],[0.8342,0.0650,0.0208,0.5473],[-1,0,-2,0],[9E9,9E9,9E9,9E9,9E9,9E9]],[  6.0489,500,5000,1000],z10,toolsj\WObj:=shangjiao;
MoveL [[158.0819,-84.5858,-34.2975],[0.8342,0.0650,0.0208,0.5473],[-1,0,-2,0],[9E9,9E9,9E9,9E9,9E9,9E9]],[  7.6828,500,5000,1000],z10,toolsj\WObj:=shangjiao;
MoveL [[157.2326,-84.2297,-33.9025],[0.8342,0.0651,0.0207,0.5472],[-1,0,-2,0],[9E9,9E9,9E9,9E9,9E9,9E9]],[  7.9209,500,5000,1000],z10,toolsj\WObj:=shangjiao;
MoveL [[156.3599,-83.8620,-33.5808],[0.8342,0.0651,0.0207,0.5472],[-1,0,-2,0],[9E9,9E9,9E9,9E9,9E9,9E9]],[  7.3693,500,5000,1000],z10,toolsj\WObj:=shangjiao;
MoveL [[155.4950,-83.4892,-33.2469],[0.8341,0.0649,0.0211,0.5474],[-1,0,-2,0],[9E9,9E9,9E9,9E9,9E9,9E9]],[  7.9931,500,5000,1000],z10,toolsj\WObj:=shangjiao;
MoveL [[154.6064,-83.1498,-32.9252],[0.8344,0.0657,0.0194,0.5469],[-1,0,-2,0],[9E9,9E9,9E9,9E9,9E9,9E9]],[  8.0586,500,5000,1000],z10,toolsj\WObj:=shangjiao;
MoveL [[153.7448,-82.7727,-32.5893],[0.8343,0.0654,0.0201,0.5471],[-1,0,-2,0],[9E9,9E9,9E9,9E9,9E9,9E9]],[  6.1897,500,5000,1000],z10,toolsj\WObj:=shangjiao;
MoveL [[152.8928,-82.4053,-32.2164],[0.8342,0.0652,0.0205,0.5472],[-1,0,-2,0],[9E9,9E9,9E9,9E9,9E9,9E9]],[  6.9420,500,5000,1000],z10,toolsj\WObj:=shangjiao;
MoveL [[152.0202,-82.0376,-31.8947],[0.8342,0.0652,0.0205,0.5472],[-1,0,-2,0],[9E9,9E9,9E9,9E9,9E9,9E9]],[  8.7981,500,5000,1000],z10,toolsj\WObj:=shangjiao;
MoveL [[151.1408,-81.6888,-31.5630],[0.8344,0.0657,0.0194,0.5469],[-1,0,-2,0],[9E9,9E9,9E9,9E9,9E9,9E9]],[  9.5933,500,5000,1000],z10,toolsj\WObj:=shangjiao;
MoveL [[150.2681,-81.3211,-31.2412],[0.8344,0.0657,0.0194,0.5469],[-1,0,-2,0],[9E9,9E9,9E9,9E9,9E9,9E9]],[  7.8900,500,5000,1000],z10,toolsj\WObj:=shangjiao;
MoveL [[149.4012,-80.9499,-30.9104],[0.8343,0.0656,0.0197,0.5470],[-1,0,-2,0],[9E9,9E9,9E9,9E9,9E9,9E9]],[  6.1770,500,5000,1000],z10,toolsj\WObj:=shangjiao;
MoveL [[148.5529,-80.5813,-30.5301],[0.8343,0.0653,0.0202,0.5471],[-1,0,-2,0],[9E9,9E9,9E9,9E9,9E9,9E9]],[  6.0873,500,5000,1000],z10,toolsj\WObj:=shangjiao;
MoveL [[147.6803,-80.2136,-30.2084],[0.8343,0.0653,0.0202,0.5471],[-1,0,-2,0],[9E9,9E9,9E9,9E9,9E9,9E9]],[  7.0032,500,5000,1000],z10,toolsj\WObj:=shangjiao;
MoveL [[146.8006,-79.8655,-29.8762],[0.8344,0.0659,0.0191,0.5468],[-1,0,-2,0],[9E9,9E9,9E9,9E9,9E9,9E9]],[  8.7750,500,5000,1000],z10,toolsj\WObj:=shangjiao;
MoveL [[145.9280,-79.4978,-29.5544],[0.8344,0.0659,0.0191,0.5468],[-1,0,-2,0],[9E9,9E9,9E9,9E9,9E9,9E9]],[  9.3092,500,5000,1000],z10,toolsj\WObj:=shangjiao;
MoveL [[145.0802,-79.1315,-29.1695],[0.8344,0.0657,0.0195,0.5469],[-1,0,-2,0],[9E9,9E9,9E9,9E9,9E9,9E9]],[  6.6685,500,5000,1000],z10,toolsj\WObj:=shangjiao;
MoveL [[144.1724,-78.7918,-28.8942],[0.8347,0.0667,0.0175,0.5464],[-1,0,-2,0],[9E9,9E9,9E9,9E9,9E9,9E9]],[  6.3780,500,5000,1000],z10,toolsj\WObj:=shangjiao;
MoveL [[143.3294,-78.4171,-28.5100],[0.8346,0.0662,0.0184,0.5466],[-1,0,-2,0],[9E9,9E9,9E9,9E9,9E9,9E9]],[  6.4633,500,5000,1000],z10,toolsj\WObj:=shangjiao;
MoveL [[142.4603,-78.0426,-28.1891],[0.8345,0.0660,0.0188,0.5467],[-1,0,-2,0],[9E9,9E9,9E9,9E9,9E9,9E9]],[  8.1467,500,5000,1000],z10,toolsj\WObj:=shangjiao;
MoveL [[141.5803,-77.6960,-27.8553],[0.8347,0.0666,0.0176,0.5464],[-1,0,-2,0],[9E9,9E9,9E9,9E9,9E9,9E9]],[  9.8322,500,5000,1000],z10,toolsj\WObj:=shangjiao;
MoveL [[140.7070,-77.3280,-27.5356],[0.8347,0.0666,0.0176,0.5464],[-1,0,-2,0],[9E9,9E9,9E9,9E9,9E9,9E9]],[  7.8072,500,5000,1000],z10,toolsj\WObj:=shangjiao;
MoveL [[139.8385,-76.9534,-27.2134],[0.8346,0.0664,0.0180,0.5465],[-1,0,-2,0],[9E9,9E9,9E9,9E9,9E9,9E9]],[  7.9979,500,5000,1000],z10,toolsj\WObj:=shangjiao;
MoveL [[138.9661,-76.5935,-26.8799],[0.8347,0.0666,0.0176,0.5464],[-1,0,-2,0],[9E9,9E9,9E9,9E9,9E9,9E9]],[  7.7434,500,5000,1000],z10,toolsj\WObj:=shangjiao;
MoveL [[138.0976,-76.2395,-26.5283],[0.8348,0.0669,0.0170,0.5462],[-1,0,-2,0],[9E9,9E9,9E9,9E9,9E9,9E9]],[  6.2102,500,5000,1000],z10,toolsj\WObj:=shangjiao;
MoveL [[137.2390,-75.8743,-26.1689],[0.8348,0.0668,0.0172,0.5463],[-1,0,-2,0],[9E9,9E9,9E9,9E9,9E9,9E9]],[  8.9084,500,5000,1000],z10,toolsj\WObj:=shangjiao;
MoveL [[136.3643,-75.5057,-25.8533],[0.8348,0.0668,0.0172,0.5463],[-1,0,-2,0],[9E9,9E9,9E9,9E9,9E9,9E9]],[ 11.6803,500,5000,1000],z10,toolsj\WObj:=shangjiao;
MoveL [[135.5045,-75.1343,-25.5054],[0.8347,0.0666,0.0176,0.5464],[-1,0,-2,0],[9E9,9E9,9E9,9E9,9E9,9E9]],[ 10.4652,500,5000,1000],z10,toolsj\WObj:=shangjiao;
MoveL [[134.6532,-74.7624,-25.1378],[0.8346,0.0663,0.0183,0.5466],[-1,0,-2,0],[9E9,9E9,9E9,9E9,9E9,9E9]],[  9.9791,500,5000,1000],z10,toolsj\WObj:=shangjiao;
MoveL [[133.7572,-74.4094,-24.8517],[0.8348,0.0669,0.0171,0.5462],[-1,0,-2,0],[9E9,9E9,9E9,9E9,9E9,9E9]],[  7.0568,500,5000,1000],z10,toolsj\WObj:=shangjiao;
MoveL [[132.8968,-74.0527,-24.4841],[0.8348,0.0670,0.0168,0.5462],[-1,0,-2,0],[9E9,9E9,9E9,9E9,9E9,9E9]],[  6.8618,500,5000,1000],z10,toolsj\WObj:=shangjiao;
MoveL [[132.0208,-73.6837,-24.1726],[0.8348,0.0670,0.0168,0.5462],[-1,0,-2,0],[9E9,9E9,9E9,9E9,9E9,9E9]],[  8.3662,500,5000,1000],z10,toolsj\WObj:=shangjiao;
MoveL [[131.1719,-73.3163,-23.7924],[0.8348,0.0668,0.0172,0.5463],[-1,0,-2,0],[9E9,9E9,9E9,9E9,9E9,9E9]],[  9.7107,500,5000,1000],z10,toolsj\WObj:=shangjiao;
MoveL [[130.2770,-72.9535,-23.5175],[0.8349,0.0671,0.0165,0.5461],[-1,0,-2,0],[9E9,9E9,9E9,9E9,9E9,9E9]],[ 11.2882,500,5000,1000],z10,toolsj\WObj:=shangjiao;
MoveL [[129.4177,-72.6046,-23.1358],[0.8350,0.0674,0.0159,0.5459],[-1,0,-2,0],[9E9,9E9,9E9,9E9,9E9,9E9]],[  8.4000,500,5000,1000],z10,toolsj\WObj:=shangjiao;
MoveL [[128.5514,-72.2361,-22.8001],[0.8349,0.0674,0.0160,0.5460],[-1,0,-2,0],[9E9,9E9,9E9,9E9,9E9,9E9]],[  6.6022,500,5000,1000],z10,toolsj\WObj:=shangjiao;
MoveL [[127.6746,-71.8667,-22.4910],[0.8349,0.0674,0.0160,0.5460],[-1,0,-2,0],[9E9,9E9,9E9,9E9,9E9,9E9]],[  7.2581,500,5000,1000],z10,toolsj\WObj:=shangjiao;
MoveL [[126.7908,-71.5176,-22.1687],[0.8351,0.0679,0.0149,0.5457],[-1,0,-2,0],[9E9,9E9,9E9,9E9,9E9,9E9]],[  7.7478,500,5000,1000],z10,toolsj\WObj:=shangjiao;
MoveL [[125.9140,-71.1483,-21.8596],[0.8351,0.0679,0.0149,0.5457],[-1,0,-2,0],[9E9,9E9,9E9,9E9,9E9,9E9]],[  7.8499,500,5000,1000],z10,toolsj\WObj:=shangjiao;
MoveL [[125.0848,-70.7796,-21.4338],[0.8350,0.0675,0.0158,0.5459],[-1,0,-2,0],[9E9,9E9,9E9,9E9,9E9,9E9]],[ 10.2607,500,5000,1000],z10,toolsj\WObj:=shangjiao;
MoveL [[124.2080,-70.4102,-21.1247],[0.8350,0.0675,0.0158,0.5459],[-1,0,-2,0],[9E9,9E9,9E9,9E9,9E9,9E9]],[ 10.7606,500,5000,1000],z10,toolsj\WObj:=shangjiao;
MoveL [[123.3343,-70.0527,-20.7907],[0.8351,0.0677,0.0153,0.5458],[-1,0,-2,0],[9E9,9E9,9E9,9E9,9E9,9E9]],[ 10.2386,500,5000,1000],z10,toolsj\WObj:=shangjiao;
MoveL [[122.4449,-69.6992,-20.4883],[0.8352,0.0682,0.0143,0.5455],[-1,0,-2,0],[9E9,9E9,9E9,9E9,9E9,9E9]],[  6.9941,500,5000,1000],z10,toolsj\WObj:=shangjiao;
MoveL [[121.5811,-69.3239,-20.1563],[0.8351,0.0679,0.0148,0.5456],[-1,0,-2,0],[9E9,9E9,9E9,9E9,9E9,9E9]],[  9.1674,500,5000,1000],z10,toolsj\WObj:=shangjiao;
MoveL [[120.7395,-68.9593,-19.7548],[0.8351,0.0677,0.0153,0.5458],[-1,0,-2,0],[9E9,9E9,9E9,9E9,9E9,9E9]],[ 11.6535,500,5000,1000],z10,toolsj\WObj:=shangjiao;
MoveL [[119.8627,-68.5899,-19.4457],[0.8351,0.0677,0.0153,0.5458],[-1,0,-2,0],[9E9,9E9,9E9,9E9,9E9,9E9]],[  9.6875,500,5000,1000],z10,toolsj\WObj:=shangjiao;
MoveL [[118.9773,-68.2457,-19.1198],[0.8353,0.0684,0.0138,0.5454],[-1,0,-2,0],[9E9,9E9,9E9,9E9,9E9,9E9]],[ 10.4131,500,5000,1000],z10,toolsj\WObj:=shangjiao;
MoveL [[118.1004,-67.8763,-18.8107],[0.8353,0.0684,0.0138,0.5454],[-1,0,-2,0],[9E9,9E9,9E9,9E9,9E9,9E9]],[  9.0972,500,5000,1000],z10,toolsj\WObj:=shangjiao;
MoveL [[117.2484,-67.5099,-18.4370],[0.8352,0.0682,0.0142,0.5455],[-1,0,-2,0],[9E9,9E9,9E9,9E9,9E9,9E9]],[  8.9372,500,5000,1000],z10,toolsj\WObj:=shangjiao;
MoveL [[116.3938,-67.1399,-18.0751],[0.8352,0.0680,0.0147,0.5456],[-1,0,-2,0],[9E9,9E9,9E9,9E9,9E9,9E9]],[ 11.3930,500,5000,1000],z10,toolsj\WObj:=shangjiao;
MoveL [[115.5170,-66.7705,-17.7659],[0.8352,0.0680,0.0147,0.5456],[-1,0,-2,0],[9E9,9E9,9E9,9E9,9E9,9E9]],[ 11.9880,500,5000,1000],z10,toolsj\WObj:=shangjiao;
MoveL [[114.6460,-66.4139,-17.4239],[0.8352,0.0682,0.0141,0.5454],[-1,0,-2,0],[9E9,9E9,9E9,9E9,9E9,9E9]],[ 20.6471,500,5000,1000],z10,toolsj\WObj:=shangjiao;
MoveL [[113.7825,-66.0498,-17.0744],[0.8352,0.0682,0.0141,0.5454],[-1,0,-2,0],[9E9,9E9,9E9,9E9,9E9,9E9]],[ 14.1431,500,5000,1000],z10,toolsj\WObj:=shangjiao;
MoveL [[113.7825,-66.0498, -7.0744],[0.8352,0.0682,0.0141,0.5454],[-1,0,-2,0],[9E9,9E9,9E9,9E9,9E9,9E9]],[  3.0000,500,5000,1000],z10,toolsj\WObj:=shangjiao;
MoveL [[110.7922,-43.3295, -2.6908],[0.8302,0.0517,0.0425,0.5534],[-1,0,-2,0],[9E9,9E9,9E9,9E9,9E9,9E9]],[ 10.0000,500,5000,1000],z10,toolsj\WObj:=shangjiao;
MoveL [[110.7922,-43.3295,-12.6908],[0.8302,0.0517,0.0425,0.5534],[-1,0,-2,0],[9E9,9E9,9E9,9E9,9E9,9E9]],[  3.0000,500,5000,1000],z10,toolsj\WObj:=shangjiao;
MoveL [[111.6598,-43.6937,-13.0296],[0.8302,0.0517,0.0426,0.5534],[-1,0,-2,0],[9E9,9E9,9E9,9E9,9E9,9E9]],[  5.1778,500,5000,1000],z10,toolsj\WObj:=shangjiao;
MoveL [[112.5278,-44.0596,-13.3655],[0.8302,0.0517,0.0426,0.5534],[-1,0,-2,0],[9E9,9E9,9E9,9E9,9E9,9E9]],[  6.1019,500,5000,1000],z10,toolsj\WObj:=shangjiao;
MoveL [[113.3882,-44.4421,-13.7042],[0.8304,0.0523,0.0417,0.5531],[-1,0,-2,0],[9E9,9E9,9E9,9E9,9E9,9E9]],[  5.3764,500,5000,1000],z10,toolsj\WObj:=shangjiao;
MoveL [[114.2474,-44.8241,-14.0474],[0.8306,0.0529,0.0408,0.5529],[-1,0,-2,0],[9E9,9E9,9E9,9E9,9E9,9E9]],[  4.4641,500,5000,1000],z10,toolsj\WObj:=shangjiao;
MoveL [[115.1153,-45.1900,-14.3832],[0.8306,0.0529,0.0408,0.5529],[-1,0,-2,0],[9E9,9E9,9E9,9E9,9E9,9E9]],[  4.6358,500,5000,1000],z10,toolsj\WObj:=shangjiao;
MoveL [[115.9894,-45.5420,-14.7171],[0.8304,0.0524,0.0415,0.5531],[-1,0,-2,0],[9E9,9E9,9E9,9E9,9E9,9E9]],[  5.0344,500,5000,1000],z10,toolsj\WObj:=shangjiao;
MoveL [[116.8617,-45.8980,-15.0513],[0.8303,0.0520,0.0421,0.5532],[-1,0,-2,0],[9E9,9E9,9E9,9E9,9E9,9E9]],[  4.6273,500,5000,1000],z10,toolsj\WObj:=shangjiao;
MoveL [[117.7205,-46.2829,-15.3916],[0.8305,0.0528,0.0410,0.5529],[-1,0,-2,0],[9E9,9E9,9E9,9E9,9E9,9E9]],[  4.5278,500,5000,1000],z10,toolsj\WObj:=shangjiao;
MoveL [[118.5926,-46.6393,-15.7260],[0.8304,0.0524,0.0415,0.5531],[-1,0,-2,0],[9E9,9E9,9E9,9E9,9E9,9E9]],[  4.5999,500,5000,1000],z10,toolsj\WObj:=shangjiao;
MoveL [[119.4649,-46.9953,-16.0605],[0.8303,0.0520,0.0421,0.5532],[-1,0,-2,0],[9E9,9E9,9E9,9E9,9E9,9E9]],[  4.7156,500,5000,1000],z10,toolsj\WObj:=shangjiao;
MoveL [[120.3251,-47.3764,-16.4019],[0.8305,0.0526,0.0412,0.5530],[-1,0,-2,0],[9E9,9E9,9E9,9E9,9E9,9E9]],[  4.9460,500,5000,1000],z10,toolsj\WObj:=shangjiao;
MoveL [[121.1930,-47.7423,-16.7377],[0.8305,0.0526,0.0412,0.5530],[-1,0,-2,0],[9E9,9E9,9E9,9E9,9E9,9E9]],[  5.1935,500,5000,1000],z10,toolsj\WObj:=shangjiao;
MoveL [[122.0533,-48.1227,-17.0786],[0.8307,0.0532,0.0404,0.5527],[-1,0,-2,0],[9E9,9E9,9E9,9E9,9E9,9E9]],[  4.7100,500,5000,1000],z10,toolsj\WObj:=shangjiao;
MoveL [[122.9261,-48.4796,-17.4106],[0.8306,0.0528,0.0409,0.5529],[-1,0,-2,0],[9E9,9E9,9E9,9E9,9E9,9E9]],[  4.7706,500,5000,1000],z10,toolsj\WObj:=shangjiao;
MoveL [[123.7974,-48.8356,-17.7480],[0.8305,0.0525,0.0414,0.5530],[-1,0,-2,0],[9E9,9E9,9E9,9E9,9E9,9E9]],[  4.7152,500,5000,1000],z10,toolsj\WObj:=shangjiao;
MoveL [[124.6585,-49.2161,-18.0873],[0.8306,0.0531,0.0406,0.5528],[-1,0,-2,0],[9E9,9E9,9E9,9E9,9E9,9E9]],[  4.8252,500,5000,1000],z10,toolsj\WObj:=shangjiao;
MoveL [[125.5265,-49.5819,-18.4232],[0.8306,0.0531,0.0406,0.5528],[-1,0,-2,0],[9E9,9E9,9E9,9E9,9E9,9E9]],[  5.1613,500,5000,1000],z10,toolsj\WObj:=shangjiao;
MoveL [[126.4010,-49.9329,-18.7570],[0.8305,0.0525,0.0414,0.5530],[-1,0,-2,0],[9E9,9E9,9E9,9E9,9E9,9E9]],[  5.1556,500,5000,1000],z10,toolsj\WObj:=shangjiao;
MoveL [[127.2728,-50.2899,-19.0914],[0.8304,0.0521,0.0419,0.5532],[-1,0,-2,0],[9E9,9E9,9E9,9E9,9E9,9E9]],[  4.6977,500,5000,1000],z10,toolsj\WObj:=shangjiao;
MoveL [[128.1244,-50.6889,-19.4366],[0.8307,0.0534,0.0401,0.5527],[-1,0,-2,0],[9E9,9E9,9E9,9E9,9E9,9E9]],[  4.4242,500,5000,1000],z10,toolsj\WObj:=shangjiao;
MoveL [[128.9924,-51.0547,-19.7725],[0.8307,0.0534,0.0401,0.5527],[-1,0,-2,0],[9E9,9E9,9E9,9E9,9E9,9E9]],[  4.4879,500,5000,1000],z10,toolsj\WObj:=shangjiao;
MoveL [[129.8679,-51.4032,-20.1061],[0.8305,0.0528,0.0410,0.5529],[-1,0,-2,0],[9E9,9E9,9E9,9E9,9E9,9E9]],[  4.6803,500,5000,1000],z10,toolsj\WObj:=shangjiao;
MoveL [[130.7359,-51.7691,-20.4420],[0.8305,0.0528,0.0410,0.5529],[-1,0,-2,0],[9E9,9E9,9E9,9E9,9E9,9E9]],[  4.8364,500,5000,1000],z10,toolsj\WObj:=shangjiao;
MoveL [[131.6087,-52.1240,-20.7763],[0.8304,0.0524,0.0416,0.5531],[-1,0,-2,0],[9E9,9E9,9E9,9E9,9E9,9E9]],[  5.0511,500,5000,1000],z10,toolsj\WObj:=shangjiao;
MoveL [[132.4686,-52.5054,-21.1167],[0.8306,0.0530,0.0408,0.5528],[-1,0,-2,0],[9E9,9E9,9E9,9E9,9E9,9E9]],[  4.6336,500,5000,1000],z10,toolsj\WObj:=shangjiao;
MoveL [[133.3409,-52.8630,-21.4499],[0.8305,0.0526,0.0412,0.5530],[-1,0,-2,0],[9E9,9E9,9E9,9E9,9E9,9E9]],[  4.6465,500,5000,1000],z10,toolsj\WObj:=shangjiao;
MoveL [[134.2019,-53.2416,-21.7914],[0.8306,0.0531,0.0405,0.5528],[-1,0,-2,0],[9E9,9E9,9E9,9E9,9E9,9E9]],[  4.6278,500,5000,1000],z10,toolsj\WObj:=shangjiao;
MoveL [[135.0699,-53.6074,-22.1272],[0.8306,0.0531,0.0405,0.5528],[-1,0,-2,0],[9E9,9E9,9E9,9E9,9E9,9E9]],[  4.7094,500,5000,1000],z10,toolsj\WObj:=shangjiao;
MoveL [[135.9464,-53.9539,-22.4601],[0.8304,0.0524,0.0416,0.5531],[-1,0,-2,0],[9E9,9E9,9E9,9E9,9E9,9E9]],[  4.8309,500,5000,1000],z10,toolsj\WObj:=shangjiao;
MoveL [[136.8145,-54.3199,-22.7956],[0.8304,0.0524,0.0416,0.5531],[-1,0,-2,0],[9E9,9E9,9E9,9E9,9E9,9E9]],[  5.0443,500,5000,1000],z10,toolsj\WObj:=shangjiao;
MoveL [[137.6745,-54.7010,-23.1368],[0.8306,0.0530,0.0407,0.5528],[-1,0,-2,0],[9E9,9E9,9E9,9E9,9E9,9E9]],[  4.7886,500,5000,1000],z10,toolsj\WObj:=shangjiao;
MoveL [[138.5363,-55.0792,-23.4763],[0.8307,0.0535,0.0400,0.5526],[-1,0,-2,0],[9E9,9E9,9E9,9E9,9E9,9E9]],[  4.6736,500,5000,1000],z10,toolsj\WObj:=shangjiao;
MoveL [[139.4042,-55.4450,-23.8122],[0.8307,0.0535,0.0400,0.5526],[-1,0,-2,0],[9E9,9E9,9E9,9E9,9E9,9E9]],[  4.7605,500,5000,1000],z10,toolsj\WObj:=shangjiao;
MoveL [[140.2791,-55.7952,-24.1461],[0.8306,0.0529,0.0409,0.5529],[-1,0,-2,0],[9E9,9E9,9E9,9E9,9E9,9E9]],[  4.7577,500,5000,1000],z10,toolsj\WObj:=shangjiao;
MoveL [[141.1470,-56.1610,-24.4820],[0.8306,0.0529,0.0409,0.5529],[-1,0,-2,0],[9E9,9E9,9E9,9E9,9E9,9E9]],[  4.7790,500,5000,1000],z10,toolsj\WObj:=shangjiao;
